!!!!SEGMENT: pl-cz--iii-563--001-003_raszek-waclaw--missa-ex-dis-credo.krn
!!!cenid: 17xx:1072
!!!COM: Raszek, Wacław
!!!COM-rismID: pe30020314
!!!CDT: <1848->1848
!!!CNT:
!!!OPR: Missa ex Dis
!!!OTL: Credo
!!!OMV: 003
!!!PDT:
!!!AGN: Sacred; Mass
!!!SMS-siglum: PL-CZ
!!!SMS-shelfmark: III-563
!!!SMS-shelfwork: 001-003 M
!!!SMS-variant:
!!!SMS-altvar:
!!!NIFC-rismSourceID: 300001050
!!!NIFC-rismChildID: 300001050
!!!NIFC-islandoraID: pl-cz:39135
!!!URL-pdf-islandora: https://repozytorium.nifc.pl/islandora/object/pl-cz%3A39135/datastream/PDF/view
!!!URL-scan:
!!!ONB-nifc: UWAGA: części Mszy: Kyrie, Gloria, Credo, Et incarnatus, Et resurrexit, Sanctus, Pleni sunt, Benedictus, Agnus Dei, Dona nobis
!!!AIN: 1 alto 1 cor 5 empty 1 organ 1 tenor 2 violn 1 vox
!!!key:
**kern	**dynam	**kern	**dynam	**kern	**dynam	**kern	**dynam	**kern	**text	**kern	**text	**kern	**text	**kern	**text	**kern	**dynam	**kern	**dynam	**kern	**dynam	**kern
*part12	*part12	*part11	*part11	*part10	*part10	*part9	*part9	*part8	*part8	*part7	*part7	*part6	*part6	*part5	*part5	*part4	*part4	*part3	*part3	*part2	*part2	*part1
*staff12	*	*staff11	*	*staff10	*	*staff9	*	*staff8	*staff8	*staff7	*staff7	*staff6	*staff6	*staff5	*staff5	*staff4	*	*staff3	*	*staff2	*	*staff1
*Iorgan	*	*Iempty	*	*Ivioln	*	*Ivioln	*	*Iempty	*	*Itenor	*	*Ialto	*	*Ivox	*	*Icor	*	*Iempty	*	*Iempty	*	*Iempty
*I"Organo.	*	*I"Viola obligata.	*	*I"Violino 2.do	*	*I"Violino Primo	*	*I"Baſso.	*	*I"Tenore.	*	*I"Alto.	*	*I"Canto.	*	*I"Corno Secundo in Dis	*	*I"Cornu Primo in Dis.	*	*I"Clarinetto Secondo. in: B	*	*I"Clarinetto Primo. in: B
*I'org	*	*I'vla	*	*I'vl II	*	*I'vl I	*	*I'B	*	*I'T	*	*I'A	*	*I'C	*	*I'cor II	*	*I'cor I	*	*I'cl II	*	*I'cl I
*clefF4	*	*clefC3	*	*clefG2	*	*clefG2	*	*clefF4	*	*clefC4	*	*clefC3	*	*clefC1	*	*clefG2	*	*clefG2	*	*clefG2	*	*clefG2
*	*	*	*	*	*	*	*	*	*	*	*	*	*	*	*	*ITrd5c9	*	*ITrd5c9	*	*ITrd1c2	*	*ITrd1c2
*E-:	*	*E-:	*	*E-:	*	*E-:	*	*E-:	*	*E-:	*	*E-:	*	*E-:	*	*E-:	*	*E-:	*	*E-:	*	*E-:
*k[b-e-a-]	*	*k[b-e-a-]	*	*k[b-e-a-]	*	*k[b-e-a-]	*	*k[b-e-a-]	*	*k[b-e-a-]	*	*k[b-e-a-]	*	*k[b-e-a-]	*	*k[b-e-a-]	*	*k[b-e-a-]	*	*k[b-e-a-]	*	*k[b-e-a-]
*M3/4	*	*M3/4	*	*M3/4	*	*M3/4	*	*M3/4	*	*M3/4	*	*M3/4	*	*M3/4	*	*M3/4	*	*M3/4	*	*M3/4	*	*M3/4
=1	=1	=1	=1	=1	=1	=1	=1	=1	=1	=1	=1	=1	=1	=1	=1	=1	=1	=1	=1	=1	=1	=1
*2\right	*	*2\right	*	*2\right	*	*2\right	*	*2\right	*	*2\right	*	*2\right	*	*2\right	*	*2\right	*	*2\right	*	*2\right	*	*
!	!	!	!	!	!	!	!	!	!	!	!	!	!	!	!	!	!	!	!	!	!	!LO:TX:a:t=P::problem=w źródle brakująca partia Clarinetto Primo. in&colon; B
!LO:TX:a:Bi:t=T.	!	!LO:TX:t=P:problem=kolejność znaków B- e- a-	!	!	!	!	!	!	!	!	!	!	!	!	!	!	!	!	!	!	!	!
!LO:TX:t=P:problem=kolejność znaków BB- E- A-	!	!LO:TX:t=P:f = for:global:problem	!	!	!	!LO:TX:a:t=T.	!	!LO:TX:t=P:problem=kolejność znaków BB- E- A-	!	!	!	!LO:TX:t=P:problem=kolejność znaków B- e- a-	!	!	!	!LO:TX:a:t=in Dis&colon;	!	!LO:TX:a:t=in Dis&colon;	!	!	!	!
!LO:TX:a:B:t=allo	!	!LO:TX:a:B:t=allo	!LO:DY:a	!LO:TX:a:B:t=all&colon;o	!	!LO:TX:a:B:t=all&colon;o	!	!LO:TX:a:B:t=all&colon;o	!	!LO:TX:a:B:t=all&colon;o	!	!LO:TX:a:B:t=all&colon;o	!	!LO:TX:b:B:t=allo	!	!LO:TX:a:B:t=allo	!LO:DY:a	!LO:TX:a:B:t=allo	!LO:DY:a	!LO:TX:a:B:t=Allo.	!	!
4E-\	.	4e-\	f	8g/L	.	8ee-\L	.	4E-\	Cre-	4B-\	Cre-	4g\	Cre-	4ee-\	Cre-	4G/	f	4e-\	f	4g/	.	2.ryy
.	.	.	.	16b-/L	.	16gg\L	.	.	.	.	.	.	.	.	.	.	.	.	.	.	.	.
.	.	.	.	16a-/JJ	.	16ff\JJ	.	.	.	.	.	.	.	.	.	.	.	.	.	.	.	.
4E-\	.	8e-\L	.	8g/L	.	8ee-\L	.	4E-\	-do	8B-\	-do-	8g\	-do-	8ee-\	-do	4G/	.	4e-\	.	4g/	.	.
.	.	8c\	.	8e-/	.	8ee-\	.	.	.	8c\	-in	8e-\	-in	8ee-\	in	.	.	.	.	.	.	.
8r	.	8B-\	.	8e-/	.	8dd\	.	8r	.	8B-\	u-	8e-\	u-	8dd\	u-	8r	.	8r	.	8r	.	.
!	!	!	!	!	!	!	!	!	!	!	!	!	!	!	!	!	!	!	!	!LO:TX:t=P:problem=4,8,16 middle or right&colon; global	!	!
8A-\	.	8A-\J	.	8e-/J	.	8cc\J	.	8A-\	in	8A-\	-num	8e-\	-num	8cc\	-num	8e-\	.	8e-\	.	8ee-\	.	.
=2	=2	=2	=2	=2	=2	=2	=2	=2	=2	=2	=2	=2	=2	=2	=2	=2	=2	=2	=2	=2	=2	=2
!LO:TX:t=P:problem=mixed beam	!	!	!	!	!	!	!	!	!	!	!	!	!	!	!	!	!	!	!	!	!	!
8B-\L	.	4B-/	.	8.g/L	.	8.b-/L	.	4B-\	u-	4B-\	De-	8.g\L	De-	8.b-\L	De-	8.g\L	.	8.b-\L	.	8.gg\L	.	2.ryy
8BB-/J	.	.	.	.	.	.	.	.	.	.	.	.	.	.	.	.	.	.	.	.	.	.
.	.	.	.	16f/Jk	.	16a-/Jk	.	.	.	.	.	16f\Jk	.	16a-\Jk	.	16f\Jk	.	16a-\Jk	.	16ff\Jk	.	.
!	!	!	!	!	!	!LO:TX:t=P:problem=mixed beam	!	!	!	!	!	!	!	!	!	!	!	!	!	!	!	!
4E-\	.	8e-\L	.	8e-/L	.	8g/L	.	4E-\	-num	8B-\	-um	8e-\	-um	8g\	-um	4e-\	.	4g\	.	4ee-\	.	.
*	*	*	*	*	*	*	*	*	*	*	*	*	*ij	*	*	*	*	*	*	*	*	*
.	.	8c\	.	8e-/	.	8ee-\	.	.	.	8c\	in	8e-\	in	8ee-\	in	.	.	.	.	.	.	.
8r	.	8B-\	.	8e-/	.	8dd\	.	8r	.	8B-\	u-	8e-\	u-	8dd\	u-	8r	.	8r	.	8r	.	.
8A-\	.	8A-\J	.	8e-/J	.	8cc\J	.	8A-\	De-	8A-\	-num	8e-\	-num	8cc\	-num	8e-\	.	8e-\	.	8ee-\	.	.
=3	=3	=3	=3	=3	=3	=3	=3	=3	=3	=3	=3	=3	=3	=3	=3	=3	=3	=3	=3	=3	=3	=3
!LO:TX:t=P:problem=mixed beam	!	!	!	!	!	!	!	!LO:TX:t=P:problem=mixed beam	!	!	!	!	!	!	!	!	!	!	!	!	!	!
8B-\L	.	4B-/	.	8.g/L	.	8.b-/L	.	8B-\L	.	4B-\	De-	8.g\L	De-	8.b-\L	De-	8.g\L	.	8.b-\L	.	8.gg\L	.	2.ryy
8BB-/J	.	.	.	.	.	.	.	8BB-/J	.	.	.	.	.	.	.	.	.	.	.	.	.	.
.	.	.	.	16f/Jk	.	16a-/Jk	.	.	.	.	.	16f\Jk	.	16a-\Jk	.	16f\Jk	.	16a-\Jk	.	16ff\Jk	.	.
*tremolo	*	*tremolo	*	*	*	*	*	*	*	*	*	*	*	*	*	*	*	*	*	*	*	*
8E-\L	.	8e-\L	.	8e-/L	.	8g\L	.	8E-\	-um	8B-\	-um	8e-\	-um	8g\	-um	4e-\	.	4g\	.	4ee-\	.	.
*	*	*	*	*	*	*	*	*	*	*	*	*	*Xij	*	*	*	*	*	*	*	*	*
8E-\	.	8e-\	.	8g/	.	8b-\	.	8E-\	Pa-	8B-\	Pa-	8g\	Pa-	8b-\	Pa-	.	.	.	.	.	.	.
8E-\	.	8e-\	.	8g/	.	8ee-\	.	8E-\	-trem	8B-\	-trem	8g\	-trem	8ee-\	-trem	4r	.	4r	.	4r	.	.
8E-\J	.	8e-\J	.	8g/J	.	8dd\J	.	8E-\	om-	8B-\	om-	8g\	om-	8dd\	om-	.	.	.	.	.	.	.
=4	=4	=4	=4	=4	=4	=4	=4	=4	=4	=4	=4	=4	=4	=4	=4	=4	=4	=4	=4	=4	=4	=4
!	!	!	!	!	!	!	!	!	!	!	!	!	!	!	!	!	!	!	!	!LO:TX:a:t=1.	!	!
8E-\L	.	8e-\L	.	8a-/L	.	16dd\LL	.	8E-\	-ni-	8e-\	-ni-	8a-\L	-ni-	8cc\	-ni-	4E-/	.	4e-\	.	2.r	.	2.ryy
.	.	.	.	.	.	16cc\	.	.	.	.	.	.	.	.	.	.	.	.	.	.	.	.
8E-\	.	8e-\	.	8a-/	.	16b-\	.	8E-\	-po-	8e-\	-po-	8a-\J	-po-	8cc\	-po-	.	.	.	.	.	.	.
.	.	.	.	.	.	16cc\JJ	.	.	.	.	.	.	.	.	.	.	.	.	.	.	.	.
8E-\	.	8e-\	.	8a-/	.	4cc\	.	4E-\	-ten-	4e-\	-ten-	4a-\	-ten-	4cc\	-ten-	4r	.	4r	.	.	.	.
8E-\J	.	8e-\	.	8a-/	.	.	.	.	.	.	.	.	.	.	.	.	.	.	.	.	.	.
*Xtremolo	*	*	*	*	*	*	*	*	*	*	*	*	*	*	*	*	*	*	*	*	*	*
8E-\L	.	8e-\	.	8g/	.	4b-\	.	4E-\	-tem	4e-\	-tem	4g\	-tem	4b-\	-tem	4r	.	4r	.	.	.	.
8E-\J	.	8e-\J	.	8g/J	.	.	.	.	.	.	.	.	.	.	.	.	.	.	.	.	.	.
=5	=5	=5	=5	=5	=5	=5	=5	=5	=5	=5	=5	=5	=5	=5	=5	=5	=5	=5	=5	=5	=5	=5
*tremolo	*	*	*	*	*	*	*	*	*	*	*	*	*	*	*	*	*	*	*	*	*	*
!	!	!	!	!	!	!	!	!	!	!	!	!LO:TX:a:t=P:problem=znak początku repetycji	!	!	!	!	!	!	!	!	!	!
8E-\L	.	8c\L	.	16f/LL	.	16an\LL	.	4E-\	fac-	4c\	fac-	4f\	fac-	4an\	Fac-	2.f\	.	2.f\	.	2.ff\	.	2.ryy
.	.	.	.	16f/	.	16b-\	.	.	.	.	.	.	.	.	.	.	.	.	.	.	.	.
8E-\	.	8c\	.	16f/	.	16cc\	.	.	.	.	.	.	.	.	.	.	.	.	.	.	.	.
.	.	.	.	16f/JJ	.	16b-\JJ	.	.	.	.	.	.	.	.	.	.	.	.	.	.	.	.
*	*	*	*	*tremolo	*	*	*	*	*	*	*	*	*	*	*	*	*	*	*	*	*	*
8E-\	.	8c\	.	16f/LL	.	8a\L	.	4E-\	-to-	4c\	-to-	4f\	-to-	4a\	-to-	.	.	.	.	.	.	.
.	.	.	.	16f/	.	.	.	.	.	.	.	.	.	.	.	.	.	.	.	.	.	.
8E-\	.	8c\	.	16f/	.	8ff\	.	.	.	.	.	.	.	.	.	.	.	.	.	.	.	.
.	.	.	.	16f/	.	.	.	.	.	.	.	.	.	.	.	.	.	.	.	.	.	.
!	!	!	!	!	!	!	!	!	!	!	!	!LO:TX:a:t=P:problem=znak końca repetycji	!	!	!	!	!	!	!	!	!	!
8E-\	.	8c\	.	16f/	.	8cc\	.	4E-\	-rem	4c\	-rem	4f\	-rem	4a\	-rem	.	.	.	.	.	.	.
.	.	.	.	16f/	.	.	.	.	.	.	.	.	.	.	.	.	.	.	.	.	.	.
8E-\J	.	8c\J	.	16f/	.	8a\J	.	.	.	.	.	.	.	.	.	.	.	.	.	.	.	.
.	.	.	.	16f/JJ	.	.	.	.	.	.	.	.	.	.	.	.	.	.	.	.	.	.
=6	=6	=6	=6	=6	=6	=6	=6	=6	=6	=6	=6	=6	=6	=6	=6	=6	=6	=6	=6	=6	=6	=6
*	*	*	*	*	*	*	*	*	*	*	*	*rep	*	*	*	*	*	*	*	*	*	*
!	!	!	!	!	!	!	!	!	!	!	!	!LO:TX:t=P:problem=fragment oznaczony znakiem repetycji	!	!	!	!	!	!	!	!	!	!
8D\L	.	8d\L	.	16f/LL	.	8an\L	.	4D\	Cae-	4d\	Cae-	4f\yy	Cae-	4b-\	Cae-	2.B-/	.	2.f\	.	2.ff\	.	2.ryy
.	.	.	.	16f/	.	.	.	.	.	.	.	.	.	.	.	.	.	.	.	.	.	.
8D\	.	8d\	.	16f/	.	8b-\	.	.	.	.	.	.	.	.	.	.	.	.	.	.	.	.
.	.	.	.	16f/	.	.	.	.	.	.	.	.	.	.	.	.	.	.	.	.	.	.
8D\	.	8d\	.	16f/	.	8b-\	.	4D\	-li	4d\	-li	4f\yy	-li	4b-\	-li	.	.	.	.	.	.	.
.	.	.	.	16f/	.	.	.	.	.	.	.	.	.	.	.	.	.	.	.	.	.	.
8D\	.	8d\	.	16f/	.	8ff\J	.	.	.	.	.	.	.	.	.	.	.	.	.	.	.	.
.	.	.	.	16f/	.	.	.	.	.	.	.	.	.	.	.	.	.	.	.	.	.	.
8D\	.	8d\	.	16f/	.	16ee-\LL	.	4D\	et	4d\	et	4f\yy	et	4b-\	et	.	.	.	.	.	.	.
.	.	.	.	16f/	.	16dd\	.	.	.	.	.	.	.	.	.	.	.	.	.	.	.	.
8D\J	.	8d\J	.	16f/	.	16cc\	.	.	.	.	.	.	.	.	.	.	.	.	.	.	.	.
.	.	.	.	16f/JJ	.	16b-\JJ	.	.	.	.	.	.	.	.	.	.	.	.	.	.	.	.
*	*	*	*	*	*	*	*	*	*	*	*	*Xrep	*	*	*	*	*	*	*	*	*	*
=7	=7	=7	=7	=7	=7	=7	=7	=7	=7	=7	=7	=7	=7	=7	=7	=7	=7	=7	=7	=7	=7	=7
8E-\L	.	8c\L	.	16f/LL	.	16an\LL	.	8E-\	ter-	8c\	ter-	8f\L	ter-	8an\	ter-	2.f\	.	2.f\	.	2.ff\	.	2.ryy
.	.	.	.	16f/	.	16b-\	.	.	.	.	.	.	.	.	.	.	.	.	.	.	.	.
8E-\	.	8c\	.	16f/	.	16cc\	.	8E-\	-rae	8c\	-rae	8f\J	-rae	8a\	-rae	.	.	.	.	.	.	.
.	.	.	.	16f/	.	16b-\JJ	.	.	.	.	.	.	.	.	.	.	.	.	.	.	.	.
8E-\	.	8c\	.	16f/	.	8a\L	.	4E-\	vi-	4c\	vi-	4f\	vi-	4a\	vi-	.	.	.	.	.	.	.
.	.	.	.	16f/	.	.	.	.	.	.	.	.	.	.	.	.	.	.	.	.	.	.
8E-\	.	8c\	.	16f/	.	8ff\	.	.	.	.	.	.	.	.	.	.	.	.	.	.	.	.
.	.	.	.	16f/	.	.	.	.	.	.	.	.	.	.	.	.	.	.	.	.	.	.
8E-\	.	8c\	.	16f/	.	8cc\	.	4E-\	-ſi-	4c\	-si-	4f\	-si-	4a\	-si-	.	.	.	.	.	.	.
.	.	.	.	16f/	.	.	.	.	.	.	.	.	.	.	.	.	.	.	.	.	.	.
8E-\J	.	8c\J	.	16f/	.	8a\J	.	.	.	.	.	.	.	.	.	.	.	.	.	.	.	.
.	.	.	.	16f/JJ	.	.	.	.	.	.	.	.	.	.	.	.	.	.	.	.	.	.
=8	=8	=8	=8	=8	=8	=8	=8	=8	=8	=8	=8	=8	=8	=8	=8	=8	=8	=8	=8	=8	=8	=8
!	!	!	!	!	!	!LO:SIC:v:s=8an	!	!	!	!	!	!	!	!	!	!	!	!	!	!	!	!
8D\L	.	8d\L	.	16f/LL	.	8a-\L	.	4.D/	-bi-	4.d\	-bi-	4.f\	-bi-	4.b-\	-bi-	4B-/	.	4f\	.	4ff\	.	2.ryy
.	.	.	.	16f/	.	.	.	.	.	.	.	.	.	.	.	.	.	.	.	.	.	.
8D\	.	8d\	.	16f/	.	8b-\	.	.	.	.	.	.	.	.	.	.	.	.	.	.	.	.
.	.	.	.	16f/	.	.	.	.	.	.	.	.	.	.	.	.	.	.	.	.	.	.
8D\	.	8d\	.	16f/	.	8b-\	.	.	.	.	.	.	.	.	.	4r	.	4r	.	4r	.	.
.	.	.	.	16f/	.	.	.	.	.	.	.	.	.	.	.	.	.	.	.	.	.	.
8D\J	.	8d\	.	16f/	.	8ff\J	.	8D/	-li-	8B-\	-li-	8f\	-li-	8b-\	-li-	.	.	.	.	.	.	.
.	.	.	.	16f/	.	.	.	.	.	.	.	.	.	.	.	.	.	.	.	.	.	.
*Xtremolo	*	*	*	*	*	*	*	*	*	*	*	*	*	*	*	*	*	*	*	*	*	*
8d\L	.	8d\	.	16f/	.	8ff\L	.	4d\	-um	4B-\	-um	4f\	-um	4dd\	-um	4r	.	4r	.	4r	.	.
.	.	.	.	16f/	.	.	.	.	.	.	.	.	.	.	.	.	.	.	.	.	.	.
8d\J	.	8d\J	.	16f/	.	16bb-\L	.	.	.	.	.	.	.	.	.	.	.	.	.	.	.	.
.	.	.	.	16f/JJ	.	16gg\JJ	.	.	.	.	.	.	.	.	.	.	.	.	.	.	.	.
*	*	*Xtremolo	*	*	*	*	*	*	*	*	*	*	*	*	*	*	*	*	*	*	*	*
=9	=9	=9	=9	=9	=9	=9	=9	=9	=9	=9	=9	=9	=9	=9	=9	=9	=9	=9	=9	=9	=9	=9
4c\	.	8c\L	.	16f/LL	.	16ff\LL	.	4c\	om-	4.An\	om-	4.f\	om-	4.ee-\	om-	2f\	.	2f\	.	2ee-\	.	2.ryy
.	.	.	.	16an/	.	16ee-\	.	.	.	.	.	.	.	.	.	.	.	.	.	.	.	.
.	.	8c\	.	16f/	.	16dd\	.	.	.	.	.	.	.	.	.	.	.	.	.	.	.	.
.	.	.	.	16a/JJ	.	16ee-\JJ	.	.	.	.	.	.	.	.	.	.	.	.	.	.	.	.
4An\	.	8An\	.	16f/LL	.	16f\LL	.	4An\	-ni-	.	.	.	.	.	.	.	.	.	.	.	.	.
.	.	.	.	16cc/	.	16an\	.	.	.	.	.	.	.	.	.	.	.	.	.	.	.	.
.	.	8A\J	.	16f/	.	16cc\	.	.	.	8c\	-ni-	8f\	-ni-	8ee-\	-ni-	.	.	.	.	.	.	.
.	.	.	.	16cc/JJ	.	16ee-\JJ	.	.	.	.	.	.	.	.	.	.	.	.	.	.	.	.
4B-\	.	8B-/L	.	16f/LL	.	16ee-\LL	.	4B-\	-um	4B-\	-um	4f\	-um	4dd\	-um	4B-/	.	4f\	.	4dd\	.	.
.	.	.	.	16b-/	.	16dd\	.	.	.	.	.	.	.	.	.	.	.	.	.	.	.	.
.	.	8B-/J	.	16f/	.	16cc\	.	.	.	.	.	.	.	.	.	.	.	.	.	.	.	.
.	.	.	.	16b-/JJ	.	16dd\JJ	.	.	.	.	.	.	.	.	.	.	.	.	.	.	.	.
=10	=10	=10	=10	=10	=10	=10	=10	=10	=10	=10	=10	=10	=10	=10	=10	=10	=10	=10	=10	=10	=10	=10
!	!	!	!	!	!	!	!	!	!	!LO:SIC:v:s=4An	!	!	!	!	!	!	!	!	!	!	!	!
8c\L	.	8c/L	.	16f/LL	.	16ff\LL	.	(4c\	et	(4A-\	et	2f\	et	2ee-\	et	2f\	.	2f\	.	2ee-\	.	2.ryy
.	.	.	.	16an/	.	16ee-\	.	.	.	.	.	.	.	.	.	.	.	.	.	.	.	.
8c\	.	8c/J	.	16f/	.	16dd\	.	.	.	.	.	.	.	.	.	.	.	.	.	.	.	.
.	.	.	.	16a/JJ	.	16ee-\JJ	.	.	.	.	.	.	.	.	.	.	.	.	.	.	.	.
!LO:SIC:v:s=8An\	!	!	!	!	!	!	!	!LO:SIC:v:s=4An	!	!	!	!	!	!	!	!	!	!	!	!	!	!
8A-\	.	8An/L	.	16f/LL	.	16f/LL	.	4A-\)	.	4c\)	.	.	.	.	.	.	.	.	.	.	.	.
.	.	.	.	16cc/	.	16an/	.	.	.	.	.	.	.	.	.	.	.	.	.	.	.	.
!LO:SIC:v:s=8An\	!	!	!	!	!	!	!	!	!	!	!	!	!	!	!	!	!	!	!	!	!	!
8A-\	.	8A/	.	16f/	.	16cc/	.	.	.	.	.	.	.	.	.	.	.	.	.	.	.	.
.	.	.	.	16cc/JJ	.	16ee-/JJ	.	.	.	.	.	.	.	.	.	.	.	.	.	.	.	.
8B-\	.	8B-/	.	16f/LL	.	16ee-\LL	.	4B-\	in	4B-\	in	4f\	in	4dd\	in	4B-/	.	4f\	.	4dd\	.	.
.	.	.	.	16b-/	.	16dd\	.	.	.	.	.	.	.	.	.	.	.	.	.	.	.	.
8B-\J	.	8B-/J	.	16f/	.	16cc\	.	.	.	.	.	.	.	.	.	.	.	.	.	.	.	.
.	.	.	.	16b-/JJ	.	16dd\JJ	.	.	.	.	.	.	.	.	.	.	.	.	.	.	.	.
=11	=11	=11	=11	=11	=11	=11	=11	=11	=11	=11	=11	=11	=11	=11	=11	=11	=11	=11	=11	=11	=11	=11
*	*	*	*	*tremolo	*	*	*	*	*	*	*	*	*	*	*	*	*	*	*	*	*	*
8E-\L	.	8e-\L	.	16g/LL	.	16dd\LL	.	8E-\	vi-	8e-\	vi-	8g\	vi-	8cc\	vi-	4e-\	.	4g\	.	4cc\	.	2.ryy
.	.	.	.	16g/	.	16cc\	.	.	.	.	.	.	.	.	.	.	.	.	.	.	.	.
8E-\J	.	8e-\J	.	16g/	.	16ee-\	.	8E-\	-ſi-	8e-\	-si-	8g\	-si-	16ee-\LL	-si-	.	.	.	.	.	.	.
.	.	.	.	16g/JJ	.	16cc\JJ	.	.	.	.	.	.	.	16cc\JJ	.	.	.	.	.	.	.	.
*tremolo	*	*tremolo	*	*	*	*	*	*	*	*	*	*	*	*	*	*	*	*	*	*	*	*
8F\L	.	8f\L	.	16d/LL	.	4b-/	.	4F\	-bi-	4d\	-bi-	4f\	-bi-	4b-\	-bi-	4f\	.	4f\	.	4b-\	.	.
.	.	.	.	16d/	.	.	.	.	.	.	.	.	.	.	.	.	.	.	.	.	.	.
8F\	.	8f\	.	16d/	.	.	.	.	.	.	.	.	.	.	.	.	.	.	.	.	.	.
.	.	.	.	16d/JJ	.	.	.	.	.	.	.	.	.	.	.	.	.	.	.	.	.	.
!	!	!	!	!	!	!	!	!	!	!	!	!	!	!	!	!LO:TX:a:t=vi	!	!	!	!	!	!
8F\	.	8f\	.	16c/LL	.	4an/	.	4F\	-li-	4c\	-li-	4f\	-li-	4an\	-li-	4f\	.	4f\	.	4a\	.	.
.	.	.	.	16c/	.	.	.	.	.	.	.	.	.	.	.	.	.	.	.	.	.	.
8F\J	.	8f\J	.	16c/	.	.	.	.	.	.	.	.	.	.	.	.	.	.	.	.	.	.
.	.	.	.	16c/JJ	.	.	.	.	.	.	.	.	.	.	.	.	.	.	.	.	.	.
*Xtremolo	*	*Xtremolo	*	*	*	*	*	*	*	*	*	*	*	*	*	*	*	*	*	*	*	*
=12	=12	=12	=12	=12	=12	=12	=12	=12	=12	=12	=12	=12	=12	=12	=12	=12	=12	=12	=12	=12	=12	=12
!	!	!	!	!	!	!	!	!	!	!	!	!	!	!	!	!LO:TX:t=P:problem=w źródledopisane takty na górze strony	!	!	!	!	!	!
!	!	!	!	!	!	!	!	!	!	!	!	!	!	!	!	!LO:TX:a:t=de	!	!	!	!	!	!
8BB-/	.	4B-/	.	8d/L	.	8b-\L	.	4BB-/	-um	4d\	-um	4f\	-um	4b-\	-um	4B-/	.	8f\	.	8b-\	.	2.ryy
8r	.	.	.	8g/	.	16bb-\L	.	.	.	.	.	.	.	.	.	.	.	8r	.	8r	.	.
.	.	.	.	.	.	16b-\JJ	.	.	.	.	.	.	.	.	.	.	.	.	.	.	.	.
4r	.	4r	.	8f/	.	16aan\LL	.	4r	.	4r	.	4r	.	4r	.	4r	.	4r	.	4r	.	.
.	.	.	.	.	.	16b-\	.	.	.	.	.	.	.	.	.	.	.	.	.	.	.	.
.	.	.	.	8e-/	.	16gg\	.	.	.	.	.	.	.	.	.	.	.	.	.	.	.	.
.	.	.	.	.	.	16b-\JJ	.	.	.	.	.	.	.	.	.	.	.	.	.	.	.	.
8r	.	8r	.	8d/	.	16ff\LL	.	4r	.	4r	.	4r	.	4r	.	4B-/	.	4f\	.	4r	.	.
.	.	.	.	.	.	16b-\	.	.	.	.	.	.	.	.	.	.	.	.	.	.	.	.
8BB-/	.	8B-/	.	8d/J	.	16dd\	.	.	.	.	.	.	.	.	.	.	.	.	.	.	.	.
.	.	.	.	.	.	16b-\JJ	.	.	.	.	.	.	.	.	.	.	.	.	.	.	.	.
=13	=13	=13	=13	=13	=13	=13	=13	=13	=13	=13	=13	=13	=13	=13	=13	=13	=13	=13	=13	=13	=13	=13
*	*	*	*	*tremolo	*	*	*	*	*	*	*	*	*	*	*	*	*	*	*	*	*	*
.	.	.	.	.	.	8qqaa-/	.	.	.	.	.	.	.	.	.	.	.	.	.	.	.	.
!LO:TX:t=P:problem=mixed beam	!	!	!	!	!	!	!	!	!	!	!	!	!	!	!	!	!	!	!	!	!	!
8E-\L	.	8e-\L	.	16b-/LL	.	8gg\L	.	(4E-\	om-	8e-\L	om-	(4g\	om-	8gg\L	om-	4e-\	.	4g\	.	4ee-\	.	2.ryy
.	.	.	.	16b-/	.	.	.	.	.	.	.	.	.	.	.	.	.	.	.	.	.	.
8E-\	.	8e-\J	.	16b-/	.	16ff\L	.	.	.	16d\L	.	.	.	16ff\L	.	.	.	.	.	.	.	.
.	.	.	.	16b-/	.	16ee-\JJ	.	.	.	16c\JJ	.	.	.	16ee-\JJ	.	.	.	.	.	.	.	.
*	*	*tremolo	*	*	*	*	*	*	*	*	*	*	*	*	*	*	*	*	*	*	*	*
8F\	.	8f\L	.	16b-/	.	4dd\	.	4F\)	.	4B-\	.	4f\)	.	4dd\	.	4f\	.	4f\	.	4dd\	.	.
.	.	.	.	16b-/	.	.	.	.	.	.	.	.	.	.	.	.	.	.	.	.	.	.
8F\	.	8f\	.	16b-/	.	.	.	.	.	.	.	.	.	.	.	.	.	.	.	.	.	.
.	.	.	.	16b-/JJ	.	.	.	.	.	.	.	.	.	.	.	.	.	.	.	.	.	.
!	!	!	!	!	!	!LO:TX:a:B:t=t	!	!	!	!	!	!	!	!	!	!	!	!	!	!	!	!
8FF/	.	8f\	.	16an/LL	.	4cc\	.	4F\	-ni-	4An\	-ni-	4f\	-ni-	4cc\	-ni-	4f\	.	4f\	.	4cc\	.	.
.	.	.	.	16a/	.	.	.	.	.	.	.	.	.	.	.	.	.	.	.	.	.	.
8FF/J	.	8f\J	.	16a/	.	.	.	.	.	.	.	.	.	.	.	.	.	.	.	.	.	.
.	.	.	.	16a/JJ	.	.	.	.	.	.	.	.	.	.	.	.	.	.	.	.	.	.
*	*	*Xtremolo	*	*	*	*	*	*	*	*	*	*	*	*	*	*	*	*	*	*	*	*
=14	=14	=14	=14	=14	=14	=14	=14	=14	=14	=14	=14	=14	=14	=14	=14	=14	=14	=14	=14	=14	=14	=14
!	!	!	!	!LO:TX:t=P:problem=mixed beam	!	!	!	!	!	!	!	!	!	!	!	!	!	!	!	!	!	!
4BB-/	.	4B-/	.	8b-\L	.	8b-\L	.	4BB-/	-um	4B-\	-um	4f\	-um	4b-\	-um	4B-/	.	4f\	.	4dd\	.	2.ryy
.	.	.	.	8B-/	.	16dd\L	.	.	.	.	.	.	.	.	.	.	.	.	.	.	.	.
.	.	.	.	.	.	16b-\JJ	.	.	.	.	.	.	.	.	.	.	.	.	.	.	.	.
4r	.	4r	.	8c/	.	16ee-\LL	.	4r	.	4r	.	4r	.	4r	.	8r	.	8r	.	4r	.	.
.	.	.	.	.	.	16b-\	.	.	.	.	.	.	.	.	.	.	.	.	.	.	.	.
.	.	.	.	8d/	.	16ff\	.	.	.	.	.	.	.	.	.	8B-/L	.	8f\L	.	.	.	.
.	.	.	.	.	.	16b-\JJ	.	.	.	.	.	.	.	.	.	.	.	.	.	.	.	.
4r	.	4r	.	8e-/	.	16gg\LL	.	4r	.	4r	.	4r	.	4r	.	8e-/	.	8g\	.	4r	.	.
.	.	.	.	.	.	16b-\	.	.	.	.	.	.	.	.	.	.	.	.	.	.	.	.
.	.	.	.	8f/J	.	16aa-X\	.	.	.	.	.	.	.	.	.	8f/J	.	8a-\J	.	.	.	.
.	.	.	.	.	.	16b-\JJ	.	.	.	.	.	.	.	.	.	.	.	.	.	.	.	.
=15	=15	=15	=15	=15	=15	=15	=15	=15	=15	=15	=15	=15	=15	=15	=15	=15	=15	=15	=15	=15	=15	=15
4E-\	.	4e-\	.	8g/L	.	16gg\LL	.	4E-\	et	4B-\	et	4g\	et	4ee-\	et	4e-\	.	4g\	.	4g/	.	2.ryy
.	.	.	.	.	.	16ff\	.	.	.	.	.	.	.	.	.	.	.	.	.	.	.	.
.	.	.	.	16g/L	.	16ee-\	.	.	.	.	.	.	.	.	.	.	.	.	.	.	.	.
.	.	.	.	16a-/JJ	.	16ff\JJ	.	.	.	.	.	.	.	.	.	.	.	.	.	.	.	.
4E-\	.	8e-\L	.	8g/L	.	8ee-\L	.	4r	.	8r	.	8r	.	8r	.	4E-/	.	4e-\	.	4g/	.	.
.	.	8c\	.	8e-/	.	8ee-\	.	.	.	8c\	in	8e-\	in	8ee-\	in	.	.	.	.	.	.	.
8r	.	8B-\	.	8e-/	.	8dd\	.	8r	.	8B-\	u-	8e-\	u-	8dd\	u-	8r	.	8r	.	8r	.	.
8A-\	.	8A-\J	.	8e-/J	.	8cc\J	.	8A-\	in	8A-\	-num	8e-\	-num	8cc\	-num	8e-\	.	8e-\	.	8ee-\	.	.
=16	=16	=16	=16	=16	=16	=16	=16	=16	=16	=16	=16	=16	=16	=16	=16	=16	=16	=16	=16	=16	=16	=16
!LO:TX:t=P:problem=mixed beam	!	!	!	!	!	!	!	!	!	!	!	!	!	!	!	!	!	!	!	!	!	!
8B-\L	.	4B-/	.	8.g/L	.	8.b-/L	.	8B-\	Do-	8.B-\	Do-	8.g\	Do-	8.b-\	Do-	8.g\L	.	8.b-\L	.	8.gg\L	.	2.ryy
8BB-/J	.	.	.	.	.	.	.	8B-\	-mi-	.	.	.	.	.	.	.	.	.	.	.	.	.
.	.	.	.	16f/Jk	.	16a-/Jk	.	.	.	16B-\	-mi-	16f\	-mi-	16a-\	-mi-	16f\Jk	.	16a-\Jk	.	16ff\Jk	.	.
*	*	*	*	*tremolo	*	*	*	*	*	*	*	*	*	*	*	*	*	*	*	*	*	*
!	!	!	!	!	!	!LO:TX:t=P:problem=mixed beam	!	!	!	!	!	!	!	!	!	!	!	!	!	!	!	!
4E-\	.	8e-\L	.	8e-/L	.	8g/L	.	4E-\	-num	8B-\	-n(um)	8e-\	-num	8g\	-num	4e-\	.	4g\	.	4ee-\	.	.
.	.	8c\	.	8e-/	.	8ee-\	.	.	.	8c\L	Je-	4e-\	Je-	8ee-\L	Je-	.	.	.	.	.	.	.
8r	.	8B-\	.	8e-/	.	8dd\	.	4r	.	8B-\J	.	.	.	8dd\J	.	8r	.	8r	.	8r	.	.
8A-\	.	8A-\J	.	8e-/J	.	8cc\J	.	.	.	8A-\	-sum	8e-\	-sum	8cc\	-sum	8e-\	.	8e-\	.	8ee-\	.	.
*	*	*	*	*Xtremolo	*	*	*	*	*	*	*	*	*	*	*	*	*	*	*	*	*	*
=17	=17	=17	=17	=17	=17	=17	=17	=17	=17	=17	=17	=17	=17	=17	=17	=17	=17	=17	=17	=17	=17	=17
!LO:TX:t=P:problem=mixed beam	!	!	!	!	!	!	!	!	!	!	!	!	!	!	!	!	!	!	!	!	!	!
8B-\L	.	4B-/	.	8.g/L	.	8.b-/L	.	4B-\	(Chris)-	4B-\	Chris-	8.g\L	(Chris)-	8.b-\L	(Chris)-	8.g\L	.	8.b-\L	.	8.gg\L	.	2.ryy
8BB-/J	.	.	.	.	.	.	.	.	.	.	.	.	.	.	.	.	.	.	.	.	.	.
.	.	.	.	16f/Jk	.	16a-/Jk	.	.	.	.	.	16f\Jk	.	16a-\Jk	.	16f\Jk	.	16a-\Jk	.	16ff\Jk	.	.
!	!	!	!	!	!	!LO:TX:t=P:problem=mixed beam	!	!	!	!	!	!	!	!	!	!	!	!	!	!	!	!
8E-\L	.	8e-\L	.	8e-/L	.	8g/L	.	8E-\	-tum	8B-\	-tum	8e-\	-tum	8g\	-tum	8e-\	.	8g\	.	4ee-\	.	.
8E-\	.	8e-\	.	8g/	.	8ee-\	.	8E-\	Fi-	8B-\	Fi-	8g\	Fi-	8ee-\	Fi-	8r	.	8r	.	.	.	.
8F\	.	8f\	.	8f/	.	8dd\	.	8F\	-li-	8d\	-li-	8f\	-li-	8dd\	-li-	4r	.	4r	.	4r	.	.
8F#X\J	.	8f#X\J	.	8e-/J	.	8cc\J	.	8F#X\	-um	8e-\	-um	8e-\	-um	8cc\	-um	.	.	.	.	.	.	.
=18	=18	=18	=18	=18	=18	=18	=18	=18	=18	=18	=18	=18	=18	=18	=18	=18	=18	=18	=18	=18	=18	=18
*tremolo	*	*tremolo	*	*	*	*	*	*	*	*	*	*	*	*	*	*	*	*	*	*	*	*
!	!	!	!	!LO:TX:t=P:problem=mixed beam	!	!	!	!	!	!	!	!	!	!	!	!	!	!	!	!	!	!
8G\L	.	8g\L	.	16d/LL	.	(16bn\LL	.	8G\	De-	8G/	De-	8d\	De-	8bn\	De-	4G/	.	4g\	.	2bX\	.	2.ryy
.	.	.	.	16bn\	.	16gg\)	.	.	.	.	.	.	.	.	.	.	.	.	.	.	.	.
8G\	.	8g\	.	16b\	.	16gg|>\	.	8G\	-i	8G/	-i	8d\	-i	8b\	-i	.	.	.	.	.	.	.
.	.	.	.	16b\JJ	.	16gg|>\JJ	.	.	.	.	.	.	.	.	.	.	.	.	.	.	.	.
*	*	*	*	*tremolo	*	*	*	*	*	*	*	*	*	*	*	*	*	*	*	*	*	*
8G\	.	8g\	.	16b\LL	.	(16aa-\LL	.	4G\	u-	4G/	u-	4d\	u-	4b\	u-	4G/	.	4g\	.	.	.	.
.	.	.	.	16b\	.	16gg\)	.	.	.	.	.	.	.	.	.	.	.	.	.	.	.	.
8G\J	.	8g\J	.	16b\	.	16gg|>\	.	.	.	.	.	.	.	.	.	.	.	.	.	.	.	.
*Xtremolo	*	*Xtremolo	*	*	*	*	*	*	*	*	*	*	*	*	*	*	*	*	*	*	*	*
.	.	.	.	16b\JJ	.	16gg|>\JJ	.	.	.	.	.	.	.	.	.	.	.	.	.	.	.	.
8Bn\L	.	8Bn/L	.	16dd\LL	.	(16dd\LL	.	4Bn\	-ni-	4G/	-ni-	4d\	-ni-	4b\	-ni-	4G/	.	4g\	.	4dd\	.	.
.	.	.	.	16dd\	.	16gg\)	.	.	.	.	.	.	.	.	.	.	.	.	.	.	.	.
8B\J	.	8B/J	.	16dd\	.	16gg|>\	.	.	.	.	.	.	.	.	.	.	.	.	.	.	.	.
.	.	.	.	16dd\JJ	.	16gg|>\JJ	.	.	.	.	.	.	.	.	.	.	.	.	.	.	.	.
*	*	*	*	*Xtremolo	*	*	*	*	*	*	*	*	*	*	*	*	*	*	*	*	*	*
=19	=19	=19	=19	=19	=19	=19	=19	=19	=19	=19	=19	=19	=19	=19	=19	=19	=19	=19	=19	=19	=19	=19
!	!	!	!	!LO:TX:t=P:problem=mixed beam	!	!	!	!	!	!	!	!	!	!	!	!	!	!	!	!	!	!
8c\L	.	8c\L	.	8ee-\L	.	16ee-\LL	.	8c\L	-ge-	4.G/	-ge-	8e-\L	-ge-	4.cc\	-ge-	2.G/	.	2.g\	.	8ee-\L	.	2.ryy
.	.	.	.	.	.	16gg\	.	.	.	.	.	.	.	.	.	.	.	.	.	.	.	.
8d\	.	8d\	.	16e-/L	.	16gg\	.	8d\J	.	.	.	8f\	.	.	.	.	.	.	.	8ff\	.	.
.	.	.	.	16f/JJ	.	16gg\JJ	.	.	.	.	.	.	.	.	.	.	.	.	.	.	.	.
*	*	*	*	*	*	*tremolo	*	*	*	*	*	*	*	*	*	*	*	*	*	*	*	*
8e-\	.	8e-\	.	8g/L	.	16gg\LL	.	8e-\L	-ni-	.	.	8g\J	.	.	.	.	.	.	.	8gg\	.	.
.	.	.	.	.	.	16gg\	.	.	.	.	.	.	.	.	.	.	.	.	.	.	.	.
8d\	.	8d\	.	8f/	.	16gg\	.	8d\J	.	8G/	-ni-	8f\	-ni-	8g\	-ni-	.	.	.	.	8ff\	.	.
.	.	.	.	.	.	16gg\	.	.	.	.	.	.	.	.	.	.	.	.	.	.	.	.
8e-\	.	8e-\	.	8g/	.	16gg\	.	8e-\L	-tum	4G/	-tum	8g\L	-tum	4g\	-tum	.	.	.	.	8gg\	.	.
.	.	.	.	.	.	16gg\	.	.	.	.	.	.	.	.	.	.	.	.	.	.	.	.
8c\J	.	8c\J	.	8e-/J	.	16gg\	.	8c\J	.	.	.	8e-\J	.	.	.	.	.	.	.	8ee-\J	.	.
.	.	.	.	.	.	16gg\JJ	.	.	.	.	.	.	.	.	.	.	.	.	.	.	.	.
=20	=20	=20	=20	=20	=20	=20	=20	=20	=20	=20	=20	=20	=20	=20	=20	=20	=20	=20	=20	=20	=20	=20
8Bn\L	.	8Bn/L	.	8d/L	.	16gg\LL	.	8Bn\	et	8d\	et	8d\	et	8g\	et	4G/	.	4g\	.	8dd\L	.	2.ryy
.	.	.	.	.	.	16gg\	.	.	.	.	.	.	.	.	.	.	.	.	.	.	.	.
8c\	.	8c/	.	8e-/	.	16gg\	.	8c\	ex	8c\	ex	8e-\	ex	8g\	ex	.	.	.	.	8ee-\	.	.
.	.	.	.	.	.	16gg\	.	.	.	.	.	.	.	.	.	.	.	.	.	.	.	.
8d\	.	8d/	.	8f/	.	16gg\	.	8d\	Pa-	8Bn\	Pa-	8f\	Pa-	8g\	Pa-	4G/	.	4g\	.	8ff\	.	.
.	.	.	.	.	.	16gg\	.	.	.	.	.	.	.	.	.	.	.	.	.	.	.	.
8c\	.	8c/	.	8e-/	.	16gg\	.	8c\	-tre	8c\	-tre	8e-\	-tre	8g\	-tre	.	.	.	.	8ee-\	.	.
.	.	.	.	.	.	16gg\	.	.	.	.	.	.	.	.	.	.	.	.	.	.	.	.
8d\	.	8d/	.	8f/	.	16gg\	.	8d\	na-	8B\	na-	8f\	na-	8g\	na-	4G/	.	4g\	.	8ff\	.	.
.	.	.	.	.	.	16gg\	.	.	.	.	.	.	.	.	.	.	.	.	.	.	.	.
8B\J	.	8B/J	.	8d/J	.	16gg\	.	8B\	-tum	8d\	-tum	8d\	-tum	8g\	-tum	.	.	.	.	8dd\J	.	.
.	.	.	.	.	.	16gg\JJ	.	.	.	.	.	.	.	.	.	.	.	.	.	.	.	.
=21	=21	=21	=21	=21	=21	=21	=21	=21	=21	=21	=21	=21	=21	=21	=21	=21	=21	=21	=21	=21	=21	=21
8c\L	.	8c\L	.	8e-/L	.	16gg\LL	.	8c\	an-	8e-\	an-	8e-\	an-	8g\	an-	2.G/	.	2.g\	.	8ee-\L	.	2.ryy
.	.	.	.	.	.	16gg\	.	.	.	.	.	.	.	.	.	.	.	.	.	.	.	.
8d\	.	8d\	.	8f/	.	16gg\	.	8d\	-te	8d\	-te	8f\	-te	8g\	-te	.	.	.	.	8ff\	.	.
.	.	.	.	.	.	16gg\	.	.	.	.	.	.	.	.	.	.	.	.	.	.	.	.
8e-\	.	8e-\	.	8g/	.	16gg\	.	8e-\L	om-	8c\L	om-	8g\L	om-	4g\	om-	.	.	.	.	8gg\	.	.
.	.	.	.	.	.	16gg\	.	.	.	.	.	.	.	.	.	.	.	.	.	.	.	.
8d\	.	8d\	.	8f/	.	16gg\	.	8d\J	.	8d\J	.	8f\J	.	.	.	.	.	.	.	8ff\	.	.
.	.	.	.	.	.	16gg\	.	.	.	.	.	.	.	.	.	.	.	.	.	.	.	.
8e-\	.	8e-\	.	8g/	.	16gg\	.	8e-\	-ni-	8c\	-ni-	8g\	-ni-	8g\	-ni-	.	.	.	.	8gg\	.	.
.	.	.	.	.	.	16gg\	.	.	.	.	.	.	.	.	.	.	.	.	.	.	.	.
8c\J	.	8c\J	.	8e-/J	.	16gg\	.	8c\	-a	8c\	-a	8e-\	-a	8g\	-a	.	.	.	.	8ee-\J	.	.
.	.	.	.	.	.	16gg\JJ	.	.	.	.	.	.	.	.	.	.	.	.	.	.	.	.
=22	=22	=22	=22	=22	=22	=22	=22	=22	=22	=22	=22	=22	=22	=22	=22	=22	=22	=22	=22	=22	=22	=22
8An\L	.	8An/L	.	8cc\L	.	16ff\LL	.	8An\	Sae-	8c\	Sae-	8f\	Sae-	8cc\	Sae-	4f\	.	4f\	.	8cc\L	.	2.ryy
.	.	.	.	.	.	16ff\	.	.	.	.	.	.	.	.	.	.	.	.	.	.	.	.
8B-\	.	8B-/	.	8dd\	.	16ff\	.	8B-\	-cu-	8B-X\	-cu-	8f\	-cu-	8dd\	-cu-	.	.	.	.	8dd\	.	.
.	.	.	.	.	.	16ff\	.	.	.	.	.	.	.	.	.	.	.	.	.	.	.	.
!	!	!	!	!	!	!	!	!	!	!LO:SIC:v:s=8An	!	!	!	!	!	!	!	!	!	!	!	!
8c\	.	8c/	.	8ee-\	.	16ff\	.	8c\	-la	8A-\	-la	8f\	-la	8ee-\	-la	4f\	.	4f\	.	8ee-\	.	.
.	.	.	.	.	.	16ff\	.	.	.	.	.	.	.	.	.	.	.	.	.	.	.	.
8B-\	.	8B-/	.	8dd\	.	16ff\	.	8B-\	De-	8B-\	De-	8f\	De-	8dd\	De-	.	.	.	.	8dd\	.	.
.	.	.	.	.	.	16ff\	.	.	.	.	.	.	.	.	.	.	.	.	.	.	.	.
!	!	!	!	!	!	!	!	!	!	!LO:SIC:v:s=8An	!	!	!	!	!	!	!	!	!	!	!	!
8c\	.	8c/	.	8ee-\	.	16ff\	.	8c\	-um	8A-\	-um	8f\	-um	8ee-\	-um	4f\	.	4f\	.	8ee-\	.	.
.	.	.	.	.	.	16ff\	.	.	.	.	.	.	.	.	.	.	.	.	.	.	.	.
8A\J	.	8A/J	.	8cc\J	.	16ff\	.	8A\	de	8c\	de	8f\	de	8cc\	de	.	.	.	.	8cc\J	.	.
.	.	.	.	.	.	16ff\JJ	.	.	.	.	.	.	.	.	.	.	.	.	.	.	.	.
=23	=23	=23	=23	=23	=23	=23	=23	=23	=23	=23	=23	=23	=23	=23	=23	=23	=23	=23	=23	=23	=23	=23
8B-\L	.	8B-/L	.	8dd\L	.	16ff\LL	.	8B-\L	De-	8B-\L	De-	4f\	De-	8dd\L	De-	2.B-/	.	2.f\	.	8dd\L	.	2.ryy
.	.	.	.	.	.	16ff\	.	.	.	.	.	.	.	.	.	.	.	.	.	.	.	.
8c\	.	8c/	.	8ee-\	.	16ff\	.	8c\J	.	8c\J	.	.	.	8ee-\J	.	.	.	.	.	8ee-\	.	.
.	.	.	.	.	.	16ff\	.	.	.	.	.	.	.	.	.	.	.	.	.	.	.	.
8d\	.	8d/	.	8ff\	.	16ff\	.	8d\	-o	8B-\	-o	8f\	-o	8ff\	-o	.	.	.	.	8ff\	.	.
.	.	.	.	.	.	16ff\	.	.	.	.	.	.	.	.	.	.	.	.	.	.	.	.
8c\	.	8c/	.	8ee-\	.	16ff\	.	8c\	lu-	8c\	lu-	8f\	lu-	8ee-\	lu-	.	.	.	.	8ee-\	.	.
.	.	.	.	.	.	16ff\	.	.	.	.	.	.	.	.	.	.	.	.	.	.	.	.
8d\	.	8d/	.	8ff\	.	16ff\	.	8d\	-men	8B-\	-men	8f\	-men	8ff\	-men	.	.	.	.	8ff\	.	.
.	.	.	.	.	.	16ff\	.	.	.	.	.	.	.	.	.	.	.	.	.	.	.	.
8B-\J	.	8B-/J	.	8dd\J	.	16ff\	.	8B-\	de	8d\	de	8f\	de	8dd\	de	.	.	.	.	8dd\J	.	.
.	.	.	.	.	.	16ff\JJ	.	.	.	.	.	.	.	.	.	.	.	.	.	.	.	.
=24	=24	=24	=24	=24	=24	=24	=24	=24	=24	=24	=24	=24	=24	=24	=24	=24	=24	=24	=24	=24	=24	=24
8An\L	.	8An/L	.	8cc\L	.	16ff\LL	.	8An\	lu-	8c\	lu-	8f\	lu-	8cc\	lu-	4f\	.	4f\	.	8cc\L	.	2.ryy
.	.	.	.	.	.	16ff\	.	.	.	.	.	.	.	.	.	.	.	.	.	.	.	.
8B-\	.	8B-/	.	8dd\	.	16ff\	.	8B-\	-mi-	8B-\	-mi-	8f\	-mi-	8dd\	-mi-	.	.	.	.	8dd\	.	.
.	.	.	.	.	.	16ff\	.	.	.	.	.	.	.	.	.	.	.	.	.	.	.	.
!	!	!	!	!	!	!	!	!	!	!LO:SIC:v:s=8An	!	!	!	!	!	!	!	!	!	!	!	!
8c\	.	8c/	.	8ee-\	.	16ff\	.	8c\	-ne	8A-\	-ne	8f\	-ne	8ee-\	-ne	4f\	.	4f\	.	8ee-\	.	.
.	.	.	.	.	.	16ff\	.	.	.	.	.	.	.	.	.	.	.	.	.	.	.	.
8B-\	.	8B-/	.	8dd\	.	16ff\	.	8B-\L	De-	8B-\L	De-	4f\	De-	8dd\L	De-	.	.	.	.	8dd\	.	.
.	.	.	.	.	.	16ff\	.	.	.	.	.	.	.	.	.	.	.	.	.	.	.	.
8c\	.	8c/	.	8ee-\	.	16ff\	.	8c\J	.	8A-\J	.	.	.	8ee-\J	.	4f\	.	4f\	.	8ee-\	.	.
.	.	.	.	.	.	16ff\	.	.	.	.	.	.	.	.	.	.	.	.	.	.	.	.
8A\J	.	8A/J	.	8cc\J	.	16ff\	.	8A\	-um	8c\	-um	8f\	-um	8cc\	-um	.	.	.	.	8cc\J	.	.
.	.	.	.	.	.	16ff\JJ	.	.	.	.	.	.	.	.	.	.	.	.	.	.	.	.
=25	=25	=25	=25	=25	=25	=25	=25	=25	=25	=25	=25	=25	=25	=25	=25	=25	=25	=25	=25	=25	=25	=25
8B-\L	.	8B-\L	.	8dd\L	.	16ff\LL	.	8B-\L	ve-	8B-\L	ve-	4f\	ve-	8dd\L	ve-	4B-/	.	4f\	.	8dd\L	.	2.ryy
.	.	.	.	.	.	16ff\	.	.	.	.	.	.	.	.	.	.	.	.	.	.	.	.
8c\	.	8c\	.	8ee-\	.	16ff\	.	8c\J	.	8c\J	.	.	.	8ee-\J	.	.	.	.	.	8ee-\	.	.
.	.	.	.	.	.	16ff\	.	.	.	.	.	.	.	.	.	.	.	.	.	.	.	.
8d\	.	8d\	.	8ff\	.	16ff\	.	8d\L	-rum	8B-\L	-rum	4f\	-rum	8ff\L	-rum	4r	.	4r	.	8ff\	.	.
.	.	.	.	.	.	16ff\	.	.	.	.	.	.	.	.	.	.	.	.	.	.	.	.
8c\	.	8c\	.	8ee-\	.	16ff\	.	8c\J	.	8c\J	.	.	.	8ee-\J	.	.	.	.	.	8ee-\	.	.
.	.	.	.	.	.	16ff\JJ	.	.	.	.	.	.	.	.	.	.	.	.	.	.	.	.
8d\	.	8d\	.	8ff\	.	16bb-\LL	.	8d\L	de	8B-\L	de	4f\	de	8ff\L	de	4r	.	4r	.	8ff\	.	.
.	.	.	.	.	.	16bb-\	.	.	.	.	.	.	.	.	.	.	.	.	.	.	.	.
8B-\J	.	8B-\J	.	8dd\J	.	16bb-\	.	8B-\J	.	8d\J	.	.	.	8dd\J	.	.	.	.	.	8dd\J	.	.
.	.	.	.	.	.	16bb-\JJ	.	.	.	.	.	.	.	.	.	.	.	.	.	.	.	.
=26	=26	=26	=26	=26	=26	=26	=26	=26	=26	=26	=26	=26	=26	=26	=26	=26	=26	=26	=26	=26	=26	=26
*	*	*	*	*tremolo	*	*	*	*	*	*	*	*	*	*	*	*	*	*	*	*	*	*
!	!	!	!	!	!	!	!	!	!	!	!	!	!	!	!	!LO:TX:b:t=pau&colon;	!	!	!	!	!	!
!	!	!	!	!	!	!	!	!	!	!	!	!	!	!	!	!LO:TX:a:t=19	!	!LO:TX:t=P:problem=nieczytelna (dopisana ołówkiem) liczba pauz	!	!	!	!
8E-\L	.	8e-\L	.	16cc\LL	.	16cc\LL	.	8E-\	De-	8B-\	De-	8g\	De-	8cc\	De-	0.r	.	0.r	.	2.cc\	.	2.ryy
.	.	.	.	16cc\	.	16bb-\	.	.	.	.	.	.	.	.	.	.	.	.	.	.	.	.
8F\	.	8f\	.	16cc\	.	16cc\	.	8F\	-o	8B-\	-o	8g\	-o	8cc\	-o	.	.	.	.	.	.	.
.	.	.	.	16cc\	.	16bb-\	.	.	.	.	.	.	.	.	.	.	.	.	.	.	.	.
8G\	.	8g\	.	16cc\	.	16cc\	.	8G\L	ve-	2B-\	ve-	2g\	ve-	2cc\	ve-	.	.	.	.	.	.	.
.	.	.	.	16cc\	.	16bb-\	.	.	.	.	.	.	.	.	.	.	.	.	.	.	.	.
8F\	.	8f\	.	16cc\	.	16cc\	.	8F\J	.	.	.	.	.	.	.	.	.	.	.	.	.	.
.	.	.	.	16cc\	.	16bb-\	.	.	.	.	.	.	.	.	.	.	.	.	.	.	.	.
8G\	.	8g\	.	16cc\	.	16cc\	.	8G\L	.	.	.	.	.	.	.	.	.	.	.	.	.	.
.	.	.	.	16cc\	.	16bb-\	.	.	.	.	.	.	.	.	.	.	.	.	.	.	.	.
8En\J	.	8en\J	.	16cc\	.	16cc\	.	8En\J	.	.	.	.	.	.	.	.	.	.	.	.	.	.
.	.	.	.	16cc\JJ	.	16bb-\JJ	.	.	.	.	.	.	.	.	.	.	.	.	.	.	.	.
*	*	*	*	*Xtremolo	*	*Xtremolo	*	*	*	*	*	*	*	*	*	*	*	*	*	*	*	*
=27	=27	=27	=27	=27	=27	=27	=27	=27	=27	=27	=27	=27	=27	=27	=27	=27	=27	=27	=27	=27	=27	=27
*	*	*	*	*	*	*^	*	*	*	*	*	*	*	*	*	*	*	*	*	*	*	*
!	!	!	!	!	!	!	!	!	!	!	!LO:SIC:v:s=4An	!	!	!	!	!	!	!	!	!	!	!	!
4F\	.	4f\	.	4cc\	.	4aan/	4cc\	.	4F\	-ro	4A-\	-ro	4f\	-ro	4cc\	-ro	.	.	.	.	4cc\	.	2.ryy
4r	.	4r	.	4r	.	8r	2ryy	.	4r	.	4r	.	4r	.	4r	.	.	.	.	.	4r	.	.
!	!	!	!	!	!	!	!	!LO:DY:a	!	!	!	!	!	!	!	!	!	!	!	!	!	!	!
.	.	.	.	.	.	8ff\L	.	p	.	.	.	.	.	.	.	.	.	.	.	.	.	.	.
4r	.	4r	.	4r	.	8ff\	.	.	4r	.	4r	.	4r	.	4r	.	.	.	.	.	4r	.	.
.	.	.	.	.	.	8ff\J	.	.	.	.	.	.	.	.	.	.	.	.	.	.	.	.	.
*	*	*	*	*	*	*v	*v	*	*	*	*	*	*	*	*	*	*	*	*	*	*	*	*
=28	=28	=28	=28	=28	=28	=28	=28	=28	=28	=28	=28	=28	=28	=28	=28	=28	=28	=28	=28	=28	=28	=28
!	!LO:DY:a	!	!LO:DY:a	!	!LO:DY:a	!	!	!	!	!	!	!	!	!LO:TX:b:t=17	!	!	!	!	!	!LO:TX:a:t=13.	!	!
4r	pp	4r	pp	8f/	p	(8dd\L	.	0.r	.	4r	.	0.r	.	0.r	.	.	.	.	.	0.r	.	2.ryy
.	.	.	.	4f/	.	8ee-\J)	.	.	.	.	.	.	.	.	.	.	.	.	.	.	.	.
!	!	!	!	!	!	!	!	!	!	!LO:TX:a:Bi:t=Solo	!	!	!	!	!	!	!	!	!	!	!	!
4c\	.	4An/	.	.	.	4.ee-\	.	.	.	4.e-\	ge-	.	.	.	.	.	.	.	.	.	.	.
.	.	.	.	4f/	.	.	.	.	.	.	.	.	.	.	.	.	.	.	.	.	.	.
4F\	.	4A/	.	.	.	.	.	.	.	.	.	.	.	.	.	.	.	.	.	.	.	.
.	.	.	.	[8f/	.	8cc\	.	.	.	8c\	-ni-	.	.	.	.	.	.	.	.	.	.	.
=29	=29	=29	=29	=29	=29	=29	=29	=29	=29	=29	=29	=29	=29	=29	=29	=29	=29	=29	=29	=29	=29	=29
4r	.	4r	.	8f/]	.	(8cc#X\L	.	.	.	8c#X\L	-tum	.	.	.	.	.	.	.	.	.	.	2.ryy
.	.	.	.	4f/	.	8dd\J)	.	.	.	8d\J	.	.	.	.	.	.	.	.	.	.	.	.
4B-\	.	4B-/	.	.	.	4.dd\	.	.	.	2d\	non	.	.	.	.	.	.	.	.	.	.	.
.	.	.	.	4f/	.	.	.	.	.	.	.	.	.	.	.	.	.	.	.	.	.	.
4F\	.	4d\	.	.	.	.	.	.	.	.	.	.	.	.	.	.	.	.	.	.	.	.
.	.	.	.	[8f/	.	8ff\	.	.	.	.	.	.	.	.	.	.	.	.	.	.	.	.
=30	=30	=30	=30	=30	=30	=30	=30	=30	=30	=30	=30	=30	=30	=30	=30	=30	=30	=30	=30	=30	=30	=30
4r	.	4r	.	8f/]	.	(16dd\LL	.	.	.	4r	.	.	.	.	.	0.r	.	0.r	.	.	.	2.ryy
.	.	.	.	.	.	16ee-\	.	.	.	.	.	.	.	.	.	.	.	.	.	.	.	.
.	.	.	.	4f/	.	16ff\	.	.	.	.	.	.	.	.	.	.	.	.	.	.	.	.
.	.	.	.	.	.	16ee-\JJ)	.	.	.	.	.	.	.	.	.	.	.	.	.	.	.	.
*	*	*	*	*	*	*	*	*	*	*	*ij	*	*	*	*	*	*	*	*	*	*	*
4c\	.	4An/	.	.	.	4.ee-\	.	.	.	4.e-\	non	.	.	.	.	.	.	.	.	.	.	.
.	.	.	.	4f/	.	.	.	.	.	.	.	.	.	.	.	.	.	.	.	.	.	.
4F\	.	4c/	.	.	.	.	.	.	.	.	.	.	.	.	.	.	.	.	.	.	.	.
.	.	.	.	[8f/	.	8cc\	.	.	.	8c\	non	.	.	.	.	.	.	.	.	.	.	.
*	*	*	*	*	*	*	*	*	*	*	*Xij	*	*	*	*	*	*	*	*	*	*	*
=31	=31	=31	=31	=31	=31	=31	=31	=31	=31	=31	=31	=31	=31	=31	=31	=31	=31	=31	=31	=31	=31	=31
4r	.	4r	.	8f/]	.	8ee-\L	.	.	.	8e-\L	fac-	.	.	.	.	.	.	.	.	.	.	2.ryy
.	.	.	.	4f/	.	8dd\J	.	.	.	8d\J	.	.	.	.	.	.	.	.	.	.	.	.
4B-\	.	4B-/	.	.	.	4.dd\	.	.	.	2d\	-tum	.	.	.	.	.	.	.	.	.	.	.
.	.	.	.	4f/	.	.	.	.	.	.	.	.	.	.	.	.	.	.	.	.	.	.
4BB-/	.	4B-/	.	.	.	.	.	.	.	.	.	.	.	.	.	.	.	.	.	.	.	.
.	.	.	.	8f/	.	8dd\	.	.	.	.	.	.	.	.	.	.	.	.	.	.	.	.
=32	=32	=32	=32	=32	=32	=32	=32	=32	=32	=32	=32	=32	=32	=32	=32	=32	=32	=32	=32	=32	=32	=32
4r	.	4r	.	8g/	.	8bn\L	.	0.r	.	8Bn\L	Con-	0.r	.	0.r	.	.	.	.	.	0.r	.	2.ryy
.	.	.	.	4g/	.	8cc\J	.	.	.	8c\J	.	.	.	.	.	.	.	.	.	.	.	.
4E-\	.	4e-\	.	.	.	4.cc\	.	.	.	2c\	-sub-	.	.	.	.	.	.	.	.	.	.	.
.	.	.	.	4g/	.	.	.	.	.	.	.	.	.	.	.	.	.	.	.	.	.	.
4EE-/	.	4E-/	.	.	.	.	.	.	.	.	.	.	.	.	.	.	.	.	.	.	.	.
.	.	.	.	[8g/	.	8ee-\	.	.	.	.	.	.	.	.	.	.	.	.	.	.	.	.
=33	=33	=33	=33	=33	=33	=33	=33	=33	=33	=33	=33	=33	=33	=33	=33	=33	=33	=33	=33	=33	=33	=33
4r	.	4r	.	8g/]	.	(16dd\LL	.	.	.	16d\LL	-stan-	.	.	.	.	.	.	.	.	.	.	2.ryy
.	.	.	.	.	.	16cc\	.	.	.	16c\JJ	.	.	.	.	.	.	.	.	.	.	.	.
.	.	.	.	4g/	.	16bn\	.	.	.	16Bn\LL	-ti-	.	.	.	.	.	.	.	.	.	.	.
.	.	.	.	.	.	16cc\JJ)	.	.	.	16c\JJ	.	.	.	.	.	.	.	.	.	.	.	.
4E-\	.	4e-\	.	.	.	8cc\L	.	.	.	8c\L	-a-	.	.	.	.	.	.	.	.	.	.	.
.	.	.	.	4g/	.	8gg\	.	.	.	8g\J	.	.	.	.	.	.	.	.	.	.	.	.
4EE-/	.	4E-/	.	.	.	8ee-\	.	.	.	8e-\L	-lem	.	.	.	.	.	.	.	.	.	.	.
.	.	.	.	[8g/	.	8cc\J	.	.	.	8c\J	.	.	.	.	.	.	.	.	.	.	.	.
=34	=34	=34	=34	=34	=34	=34	=34	=34	=34	=34	=34	=34	=34	=34	=34	=34	=34	=34	=34	=34	=34	=34
4r	.	4r	.	8g/]	.	8cc\L	.	.	.	8c\L	Pa-	.	.	.	.	0.r	.	0.r	.	.	.	2.ryy
.	.	.	.	4g/	.	8b-X\J	.	.	.	8B-X\J	.	.	.	.	.	.	.	.	.	.	.	.
4En\	.	4c\	.	.	.	4.b-\	.	.	.	2B-\	.	.	.	.	.	.	.	.	.	.	.	.
.	.	.	.	4g/	.	.	.	.	.	.	.	.	.	.	.	.	.	.	.	.	.	.
4C\	.	4en\	.	.	.	.	.	.	.	.	.	.	.	.	.	.	.	.	.	.	.	.
.	.	.	.	8g/	.	8cc\	.	.	.	.	.	.	.	.	.	.	.	.	.	.	.	.
=35	=35	=35	=35	=35	=35	=35	=35	=35	=35	=35	=35	=35	=35	=35	=35	=35	=35	=35	=35	=35	=35	=35
4F\	.	4f\	.	8f/	.	(8an\L	.	.	.	4An\	-tri	.	.	.	.	.	.	.	.	.	.	2.ryy
.	.	.	.	4f/	.	8ff\)	.	.	.	.	.	.	.	.	.	.	.	.	.	.	.	.
4r	.	4c\	.	.	.	8ff'\	.	.	.	4r	.	.	.	.	.	.	.	.	.	.	.	.
.	.	.	.	4f/	.	8ff'\	.	.	.	.	.	.	.	.	.	.	.	.	.	.	.	.
4r	.	4An/	.	.	.	(8een\	.	.	.	4r	.	.	.	.	.	.	.	.	.	.	.	.
.	.	.	.	[8f/	.	8ff\J)	.	.	.	.	.	.	.	.	.	.	.	.	.	.	.	.
=36	=36	=36	=36	=36	=36	=36	=36	=36	=36	=36	=36	=36	=36	=36	=36	=36	=36	=36	=36	=36	=36	=36
*	*	*	*	*	*	*^	*	*	*	*	*	*	*	*	*	*	*	*	*	*	*	*
!	!	!LO:SIC:v:s=4An	!	!	!	!	!	!	!	!	!	!	!	!	!	!	!	!	!	!	!	!	!
4c\	.	4A-/	.	8f/]	.	8ee-X/	2.f\	.	0.r	.	(4c\	per	0.r	.	0.r	.	.	.	.	.	0.r	.	2.ryy
.	.	.	.	4f/	.	4ee-/	.	.	.	.	.	.	.	.	.	.	.	.	.	.	.	.	.
4An\	.	4c/	.	.	.	.	.	.	.	.	4e-X\)	.	.	.	.	.	.	.	.	.	.	.	.
.	.	.	.	4f/	.	4ee-/	.	.	.	.	.	.	.	.	.	.	.	.	.	.	.	.	.
!	!	!LO:SIC:v:s=4An	!	!	!	!	!	!	!	!	!	!	!	!	!	!	!	!	!	!	!	!	!
4F\	.	4A-/	.	.	.	.	.	.	.	.	4e-\	quem	.	.	.	.	.	.	.	.	.	.	.
.	.	.	.	[8f/	.	8ee-/	.	.	.	.	.	.	.	.	.	.	.	.	.	.	.	.	.
*	*	*	*	*	*	*v	*v	*	*	*	*	*	*	*	*	*	*	*	*	*	*	*	*
=37	=37	=37	=37	=37	=37	=37	=37	=37	=37	=37	=37	=37	=37	=37	=37	=37	=37	=37	=37	=37	=37	=37
4B-\	.	4B-/	.	8f/]	.	(8dd\L	.	.	.	4.d\	om-	.	.	.	.	.	.	.	.	.	.	2.ryy
.	.	.	.	4f/	.	8ff\)	.	.	.	.	.	.	.	.	.	.	.	.	.	.	.	.
4d\	.	4B-/	.	.	.	8ff|>\	.	.	.	.	.	.	.	.	.	.	.	.	.	.	.	.
.	.	.	.	4f/	.	8ff|>\	.	.	.	8f\	-ni-	.	.	.	.	.	.	.	.	.	.	.
4B-\	.	4d\	.	.	.	(8een\	.	.	.	4f\	-a	.	.	.	.	.	.	.	.	.	.	.
.	.	.	.	[8f/	.	8ff\J)	.	.	.	.	.	.	.	.	.	.	.	.	.	.	.	.
=38	=38	=38	=38	=38	=38	=38	=38	=38	=38	=38	=38	=38	=38	=38	=38	=38	=38	=38	=38	=38	=38	=38
*	*	*	*	*	*	*^	*	*	*	*	*	*	*	*	*	*	*	*	*	*	*	*
*	*	*	*	*	*	*	*	*	*	*	*	*ij	*	*	*	*	*	*	*	*	*	*	*
!	!	!LO:SIC:v:s=4An	!	!	!	!	!	!	!	!	!	!	!	!	!	!	!	!	!	!	!	!	!
4c\	.	4A-/	.	8f/]	.	8ee-X/	2.f\	.	.	.	2e-\	per	.	.	.	.	0.r	.	0.r	.	.	.	2.ryy
.	.	.	.	4f/	.	4ee-/	.	.	.	.	.	.	.	.	.	.	.	.	.	.	.	.	.
!LO:SIC:v:s=4An	!	!	!	!	!	!	!	!	!	!	!	!	!	!	!	!	!	!	!	!	!	!	!
4A-\	.	4c/	.	.	.	.	.	.	.	.	.	.	.	.	.	.	.	.	.	.	.	.	.
.	.	.	.	4f/	.	4ee-/	.	.	.	.	.	.	.	.	.	.	.	.	.	.	.	.	.
!	!	!LO:SIC:v:s=4An	!	!	!	!	!	!	!	!	!	!	!	!	!	!	!	!	!	!	!	!	!
4F\	.	4A-/	.	.	.	.	.	.	.	.	4e-\	quem	.	.	.	.	.	.	.	.	.	.	.
.	.	.	.	8f/	.	8ee-/	.	.	.	.	.	.	.	.	.	.	.	.	.	.	.	.	.
*	*	*	*	*	*	*v	*v	*	*	*	*	*	*	*	*	*	*	*	*	*	*	*	*
=39	=39	=39	=39	=39	=39	=39	=39	=39	=39	=39	=39	=39	=39	=39	=39	=39	=39	=39	=39	=39	=39	=39
4B-\	.	4B-/	.	4f/	.	8dd|>\L	.	.	.	8d\L	om-	.	.	.	.	.	.	.	.	.	.	2.ryy
.	.	.	.	.	.	8ff|>\J	.	.	.	8f\J	.	.	.	.	.	.	.	.	.	.	.	.
4r	.	4r	.	4r	.	(8ee-\L	.	.	.	8e-\L	-ni-	.	.	.	.	.	.	.	.	.	.	.
.	.	.	.	.	.	8dd\)	.	.	.	8d\J	.	.	.	.	.	.	.	.	.	.	.	.
4D\	.	4d\	.	4f/	.	(8cc\	.	.	.	8c\L	-a	.	.	.	.	.	.	.	.	.	.	.
.	.	.	.	.	.	8b-\J)	.	.	.	8B-\J	.	.	.	.	.	.	.	.	.	.	.	.
*	*	*	*	*	*	*	*	*	*	*	*Xij	*	*	*	*	*	*	*	*	*	*	*
=40	=40	=40	=40	=40	=40	=40	=40	=40	=40	=40	=40	=40	=40	=40	=40	=40	=40	=40	=40	=40	=40	=40
4E-\	.	4e-\	.	8g/L	.	8cc\L	.	0.r	.	8c\L	fa-	0.r	.	0.r	.	.	.	.	.	2.r	.	2.ryy
.	.	.	.	8e-/J	.	16ee-\L	.	.	.	(16e-\L	.	.	.	.	.	.	.	.	.	.	.	.
.	.	.	.	.	.	16cc\JJ	.	.	.	16c\JJ	.	.	.	.	.	.	.	.	.	.	.	.
4F\	.	4f\	.	4d/	.	4b-/	.	.	.	4B-\)	.	.	.	.	.	.	.	.	.	.	.	.
!	!	!	!	!	!	!	!	!	!	!LO:SIC:v:s=4An	!	!	!	!	!	!	!	!	!	!	!	!
4FF/	.	4F/	.	4c/	.	4an/	.	.	.	4A-\	-cta	.	.	.	.	.	.	.	.	.	.	.
=41	=41	=41	=41	=41	=41	=41	=41	=41	=41	=41	=41	=41	=41	=41	=41	=41	=41	=41	=41	=41	=41	=41
!	!	!	!	!LO:TX:t=P:pp = pianiſ.:problem	!LO:DY:a	!	!	!	!	!	!	!	!	!	!	!	!	!	!	!	!	!
4BB-|>/	.	8B-/	.	8d/	pp	8b-/	pp	.	.	4B-\	sunt.	.	.	.	.	.	.	.	.	2.dd\	.	2.ryy
.	.	4B-/	.	4d/	.	4b-/	.	.	.	.	.	.	.	.	.	.	.	.	.	.	.	.
4r	.	.	.	.	.	.	.	.	.	4r	.	.	.	.	.	.	.	.	.	.	.	.
.	.	4B-/	.	4d/	.	4b-/	.	.	.	.	.	.	.	.	.	.	.	.	.	.	.	.
4r	.	.	.	.	.	.	.	.	.	4r	.	.	.	.	.	.	.	.	.	.	.	.
.	.	8B-/	.	8d/	.	8b-/	.	.	.	.	.	.	.	.	.	.	.	.	.	.	.	.
=42	=42	=42	=42	=42	=42	=42	=42	=42	=42	=42	=42	=42	=42	=42	=42	=42	=42	=42	=42	=42	=42	=42
4BB-|>/	.	8r	.	8r	.	16an/LL	.	.	.	1.r	.	.	.	.	.	1.r	.	1.r	.	2.ee-\	.	2.ryy
.	.	.	.	.	.	16b-/	.	.	.	.	.	.	.	.	.	.	.	.	.	.	.	.
.	.	4c\	.	4e-/	.	16cc/	.	.	.	.	.	.	.	.	.	.	.	.	.	.	.	.
.	.	.	.	.	.	16b-/JJ	.	.	.	.	.	.	.	.	.	.	.	.	.	.	.	.
4r	.	.	.	.	.	8a/	.	.	.	.	.	.	.	.	.	.	.	.	.	.	.	.
.	.	4c\	.	4e-/	.	4a/	.	.	.	.	.	.	.	.	.	.	.	.	.	.	.	.
4r	.	.	.	.	.	.	.	.	.	.	.	.	.	.	.	.	.	.	.	.	.	.
.	.	8c\	.	8e-/	.	8a/	.	.	.	.	.	.	.	.	.	.	.	.	.	.	.	.
=43	=43	=43	=43	=43	=43	=43	=43	=43	=43	=43	=43	=43	=43	=43	=43	=43	=43	=43	=43	=43	=43	=43
4BB-/	.	8r	.	8r	.	8a-X/	.	.	.	.	.	.	.	.	.	.	.	.	.	2.ff\	.	2.ryy
.	.	4d\	.	4f/	.	4a-/	.	.	.	.	.	.	.	.	.	.	.	.	.	.	.	.
4r	.	.	.	.	.	.	.	.	.	.	.	.	.	.	.	.	.	.	.	.	.	.
.	.	4d\	.	4f/	.	4a-/	.	.	.	.	.	.	.	.	.	.	.	.	.	.	.	.
4r	.	.	.	.	.	.	.	.	.	.	.	.	.	.	.	.	.	.	.	.	.	.
.	.	8d\	.	8f/	.	8a-/	.	.	.	.	.	.	.	.	.	.	.	.	.	.	.	.
=44	=44	=44	=44	=44	=44	=44	=44	=44	=44	=44	=44	=44	=44	=44	=44	=44	=44	=44	=44	=44	=44	=44
!	!	!	!	!	!LO:DY:a	!	!	!	!	!	!	!	!	!	!	!	!	!	!	!	!	!
4E-\	.	4e-\	.	8e-/L	<	8g/L	<	2.r	.	2.r	.	2.r	.	2.r	.	2.r	.	2.r	.	4ee-\	.	2.ryy
.	.	.	.	8e-/	.	8g/	.	.	.	.	.	.	.	.	.	.	.	.	.	.	.	.
4r	.	4r	.	8f/	.	8a-/	.	.	.	.	.	.	.	.	.	.	.	.	.	4r	.	.
.	.	.	.	8g/	.	8b-/	.	.	.	.	.	.	.	.	.	.	.	.	.	.	.	.
4r	.	4r	.	8a-/	.	8cc/	.	.	.	.	.	.	.	.	.	.	.	.	.	4r	.	.
.	.	.	.	8f/J	[[	8dd/J	[[	.	.	.	.	.	.	.	.	.	.	.	.	.	.	.
=45	=45	=45	=45	=45	=45	=45	=45	=45	=45	=45	=45	=45	=45	=45	=45	=45	=45	=45	=45	=45	=45	=45
!LO:TX:a:t=T&colon;	!LO:DY:a	!	!LO:DY:a	!	!LO:DY:a	!LO:TX:t=P:f = for:problem	!	!	!	!	!	!	!	!	!	!	!	!	!	!LO:TX:t=P:f = forte:problem	!LO:DY:a	!
4E-\	f	4e-\	f	8g/L	f	8ee-\L	f	4E-\	qui	4B-\	qui	4g\	qui	4ee-\	qui	4G/	.	4e-\	.	4g/	f	2.ryy
.	.	.	.	16b-/L	.	16gg\L	.	.	.	.	.	.	.	.	.	.	.	.	.	.	.	.
.	.	.	.	16a-/JJ	.	16ff\JJ	.	.	.	.	.	.	.	.	.	.	.	.	.	.	.	.
4EE-/	.	8r	.	8g/L	.	8ee-\L	.	4r	.	8r	.	4r	.	8r	.	4E-/	.	4e-\	.	4g/	.	.
*	*	*	*	*	*	*	*	*	*	*	*ij	*	*	*	*	*	*	*	*	*	*	*
!	!	!	!	!	!	!	!	!	!	!	!	!	!	!LO:TX:t=P:problem=belki ósemek przekreślone	!	!	!	!	!	!	!	!
.	.	8c\L	.	8e-/	.	8ee-\	.	.	.	8c\	qui	.	.	8ee-\	pro-	.	.	.	.	.	.	.
*	*	*	*	*	*	*	*	*	*	*	*Xij	*	*	*	*	*	*	*	*	*	*	*
*	*	*	*	*	*	*	*	*	*	*	*	*	*ij	*	*	*	*	*	*	*	*	*
8r	.	8B-\	.	8e-/	.	8dd\	.	8r	.	8B-\	(pro)-	4e-\	qui	8dd\	-pter	8r	.	8r	.	8r	.	.
*	*	*	*	*	*	*	*	*	*ij	*	*	*	*	*	*	*	*	*	*	*	*	*
8A-\	.	8A-\J	.	8e-/J	.	8cc\J	.	8A-\	qui	8A-\	-pter	.	.	8cc\	non	8e-\	.	8e-\	.	8ee-\	.	.
*	*	*	*	*	*	*	*	*	*Xij	*	*	*	*Xij	*	*	*	*	*	*	*	*	*
=46	=46	=46	=46	=46	=46	=46	=46	=46	=46	=46	=46	=46	=46	=46	=46	=46	=46	=46	=46	=46	=46	=46
!LO:TX:t=P:problem=mixed beam	!	!	!	!	!	!	!	!	!	!	!	!	!	!	!	!	!	!	!	!	!	!
8B-\L	.	4B-/	.	8.g/L	.	8.b-/L	.	4B-\	(pro)-	4B-\	nos	8.g\L	pro-	8.b-\L	ho-	8.g\L	.	8.b-\L	.	8.gg\L	.	2.ryy
8BB-/J	.	.	.	.	.	.	.	.	.	.	.	.	.	.	.	.	.	.	.	.	.	.
.	.	.	.	16f/Jk	.	16a-/Jk	.	.	.	.	.	16f\Jk	.	16a-\Jk	-mi-	16f\Jk	.	16a-\Jk	.	16ff\Jk	.	.
*	*	*	*	*tremolo	*	*	*	*	*	*	*	*	*	*	*	*	*	*	*	*	*	*
!	!	!	!	!	!	!LO:TX:t=P:problem=mixed beam	!	!	!	!	!	!	!	!	!	!	!	!	!	!	!	!
4E-\	.	8e-\L	.	8e-/L	.	8g\L	.	4E-\	-pter	8B-\L	(pro)-	8e-\	-pter	8g\	-nes	4e-\	.	4g\	.	4ee-\	.	.
*	*	*	*	*	*	*	*	*	*	*	*	*	*ij	*	*	*	*	*	*	*	*	*
.	.	8c\	.	8e-/	.	8ee-\	.	.	.	8c\J	.	8e-\	pro-	8ee-\	(pro)-	.	.	.	.	.	.	.
8r	.	8B-\	.	8e-/	.	8dd\	.	8r	.	8B-\	-pter	8e-\	-pter	8dd\	-pter	4r	.	4r	.	8r	.	.
*	*	*	*	*	*	*	*	*	*	*	*	*	*Xij	*	*	*	*	*	*	*	*	*
8A-\	.	8A-\J	.	8e-/J	.	8cc\J	.	8A-\	nos	8A-\	nos	8e-\	nos	8cc\	nos	.	.	.	.	8ee-\	.	.
*	*	*	*	*Xtremolo	*	*	*	*	*	*	*	*	*	*	*	*	*	*	*	*	*	*
=47	=47	=47	=47	=47	=47	=47	=47	=47	=47	=47	=47	=47	=47	=47	=47	=47	=47	=47	=47	=47	=47	=47
!LO:TX:t=P:problem=mixed beam	!	!	!	!	!	!	!	!	!	!	!	!	!	!	!	!	!	!	!	!LO:N:vis=8	!	!
8B-\L	.	4B-/	.	8.g/L	.	8.b-/L	.	8B-\	ho-	8.B-\	ho-	8.g\	ho-	8.b-\	ho-	8.g\L	.	8.b-\L	.	8.gg\L	.	2.ryy
8BB-/J	.	.	.	.	.	.	.	8BB-/	-mi-	.	.	.	.	.	.	.	.	.	.	.	.	.
.	.	.	.	16f/Jk	.	16a-/Jk	.	.	.	16B-\	-mi-	16f\	-mi-	16a-\	-mi-	16f\Jk	.	16a-\Jk	.	16ff\Jk	.	.
*	*	*tremolo	*	*	*	*	*	*	*	*	*	*	*	*	*	*	*	*	*	*	*	*
8E-\L	.	8e-\L	.	8e-/L	.	8g\L	.	4E-\	-nes	4B-\	-nes	8e-\	-nes	4g\	-nes	4e-\	.	4g\	.	4ee-\	.	.
8E-\	.	8e-\	.	8e-/	.	8b-\	.	.	.	.	.	8r	.	.	.	.	.	.	.	.	.	.
8E-\	.	8e-\	.	8g/	.	8ee-\	.	4r	.	4r	.	4r	.	4r	.	4r	.	4r	.	4r	.	.
8E-\J	.	8e-\J	.	8g/J	.	8dd\J	.	.	.	.	.	.	.	.	.	.	.	.	.	.	.	.
=48	=48	=48	=48	=48	=48	=48	=48	=48	=48	=48	=48	=48	=48	=48	=48	=48	=48	=48	=48	=48	=48	=48
*tremolo	*	*	*	*tremolo	*	*	*	*	*	*	*	*	*	*	*	*	*	*	*	*	*	*
!	!	!	!	!	!	!	!	!	!	!	!	!	!	!	!	!	!	!	!	!LO:TX:a:t=1.	!	!
8E-\L	.	8e-\L	.	8a-/L	.	16dd\LL	.	4E-\	et	4e-\	et	4a-\	et	4cc\	et	4E-/	.	4e-\	.	2.r	.	2.ryy
.	.	.	.	.	.	16cc\	.	.	.	.	.	.	.	.	.	.	.	.	.	.	.	.
8E-\	.	8e-\	.	8a-/	.	16b-\	.	.	.	.	.	.	.	.	.	.	.	.	.	.	.	.
.	.	.	.	.	.	16cc\JJ	.	.	.	.	.	.	.	.	.	.	.	.	.	.	.	.
8E-\	.	8e-\	.	8a-/	.	(4cc\	.	4E-\	(pro)-	4e-\	(pro)-	4a-\	(pro)-	4cc\	(pro)-	4r	.	4r	.	.	.	.
8E-\J	.	8e-\	.	8a-/J	.	.	.	.	.	.	.	.	.	.	.	.	.	.	.	.	.	.
*Xtremolo	*	*	*	*Xtremolo	*	*	*	*	*	*	*	*	*	*	*	*	*	*	*	*	*	*
8E-\L	.	8e-\	.	8g/L	.	4b-\)	.	4E-\	-pter	4e-\	-pter	4g\	-pter	4b-\	-pter	4r	.	4r	.	.	.	.
8E-\J	.	8e-\J	.	8g/J	.	.	.	.	.	.	.	.	.	.	.	.	.	.	.	.	.	.
=49	=49	=49	=49	=49	=49	=49	=49	=49	=49	=49	=49	=49	=49	=49	=49	=49	=49	=49	=49	=49	=49	=49
*tremolo	*	*	*	*tremolo	*	*	*	*	*	*	*	*	*	*	*	*	*	*	*	*	*	*
8E-\L	.	8c\L	.	16f/LL	.	16an\LL	.	2.E-\	nos-	2.c\	nos-	2.f\	nos-	2.an\	nos-	2.f\	.	2.f\	.	2.cc\	.	2.ryy
.	.	.	.	16f/	.	16b-\	.	.	.	.	.	.	.	.	.	.	.	.	.	.	.	.
8E-\	.	8c\	.	16f/	.	16cc\	.	.	.	.	.	.	.	.	.	.	.	.	.	.	.	.
.	.	.	.	16f/	.	16b-\JJ	.	.	.	.	.	.	.	.	.	.	.	.	.	.	.	.
8E-\	.	8c\	.	16f/	.	8a\L	.	.	.	.	.	.	.	.	.	.	.	.	.	.	.	.
.	.	.	.	16f/	.	.	.	.	.	.	.	.	.	.	.	.	.	.	.	.	.	.
8E-\	.	8c\	.	16f/	.	8ff\	.	.	.	.	.	.	.	.	.	.	.	.	.	.	.	.
.	.	.	.	16f/	.	.	.	.	.	.	.	.	.	.	.	.	.	.	.	.	.	.
8E-\	.	8c\	.	16f/	.	8cc\	.	.	.	.	.	.	.	.	.	.	.	.	.	.	.	.
.	.	.	.	16f/	.	.	.	.	.	.	.	.	.	.	.	.	.	.	.	.	.	.
8E-\J	.	8c\J	.	16f/	.	8a\J	.	.	.	.	.	.	.	.	.	.	.	.	.	.	.	.
.	.	.	.	16f/JJ	.	.	.	.	.	.	.	.	.	.	.	.	.	.	.	.	.	.
=50	=50	=50	=50	=50	=50	=50	=50	=50	=50	=50	=50	=50	=50	=50	=50	=50	=50	=50	=50	=50	=50	=50
!	!	!	!	!	!	!LO:SIC:v:s=8an	!	!	!	!	!	!	!	!	!	!	!	!	!	!	!	!
8D\L	.	8d\L	.	16f/LL	.	(8a-\L	.	2D\	-tram	2d\	-tram	2f\	-tram	2b-\	-tram	2.B-/	.	2.f\	.	2.dd\	.	2.ryy
.	.	.	.	16f/	.	.	.	.	.	.	.	.	.	.	.	.	.	.	.	.	.	.
8D\	.	8d\	.	16f/	.	8b-\)	.	.	.	.	.	.	.	.	.	.	.	.	.	.	.	.
.	.	.	.	16f/	.	.	.	.	.	.	.	.	.	.	.	.	.	.	.	.	.	.
8D\	.	8d\	.	16f/	.	8b-|>\	.	.	.	.	.	.	.	.	.	.	.	.	.	.	.	.
.	.	.	.	16f/	.	.	.	.	.	.	.	.	.	.	.	.	.	.	.	.	.	.
8D\	.	8d\	.	16f/	.	8ff|>\J	.	.	.	.	.	.	.	.	.	.	.	.	.	.	.	.
.	.	.	.	16f/	.	.	.	.	.	.	.	.	.	.	.	.	.	.	.	.	.	.
8D\	.	8d\	.	16f/	.	16ee-\LL	.	4D\	Sa-	4d\	Sa-	4f\	Sa-	4b-\	Sa-	.	.	.	.	.	.	.
.	.	.	.	16f/	.	16dd\	.	.	.	.	.	.	.	.	.	.	.	.	.	.	.	.
8D\J	.	8d\J	.	16f/	.	16cc\	.	.	.	.	.	.	.	.	.	.	.	.	.	.	.	.
.	.	.	.	16f/JJ	.	16b-\JJ	.	.	.	.	.	.	.	.	.	.	.	.	.	.	.	.
*Xtremolo	*	*Xtremolo	*	*	*	*	*	*	*	*	*	*	*	*	*	*	*	*	*	*	*	*
=51	=51	=51	=51	=51	=51	=51	=51	=51	=51	=51	=51	=51	=51	=51	=51	=51	=51	=51	=51	=51	=51	=51
4F\	.	8d\L	.	16g/LL	.	16bb-\LL	.	4F\	-lu-	2f\	-lu-	2a-X\	-lu-	2b-\	-lu-	4B-/	.	4f\	.	2.b-\	.	2.ryy
.	.	.	.	16b-/	.	16aa-X\	.	.	.	.	.	.	.	.	.	.	.	.	.	.	.	.
.	.	8d\	.	16g/	.	16gg\	.	.	.	.	.	.	.	.	.	.	.	.	.	.	.	.
.	.	.	.	16b-/JJ	.	16aa-\JJ	.	.	.	.	.	.	.	.	.	.	.	.	.	.	.	.
*	*	*	*	*tremolo	*	*	*	*	*	*	*	*	*	*	*	*	*	*	*	*	*	*
4D\	.	8f\	.	16g/LL	.	16b-\LL	.	4D\	-tem	.	.	.	.	.	.	4B-/	.	4f\	.	.	.	.
.	.	.	.	16b-/	.	16dd\	.	.	.	.	.	.	.	.	.	.	.	.	.	.	.	.
.	.	8f\	.	16g/	.	16ff\	.	.	.	.	.	.	.	.	.	.	.	.	.	.	.	.
.	.	.	.	16b-/	.	16aa-\JJ	.	.	.	.	.	.	.	.	.	.	.	.	.	.	.	.
!	!	!	!	!	!	!	!	!	!	!	!	!	!	!	!	!LO:TX:a:t=c	!	!	!	!	!	!
4E-\	.	8e-\	.	16g/	.	16aa-\LL	.	4E-\	des-	8e-\	-tem	8g\	-tem	8b-\	-tem	4e-\	.	4g\	.	.	.	.
.	.	.	.	16b-/	.	16gg\	.	.	.	.	.	.	.	.	.	.	.	.	.	.	.	.
.	.	8e-\J	.	16g/	.	16ff\	.	.	.	8e-\	des-	8g\	des-	8b-\	des-	.	.	.	.	.	.	.
.	.	.	.	16b-/JJ	.	16gg\JJ	.	.	.	.	.	.	.	.	.	.	.	.	.	.	.	.
=52	=52	=52	=52	=52	=52	=52	=52	=52	=52	=52	=52	=52	=52	=52	=52	=52	=52	=52	=52	=52	=52	=52
*	*	*tremolo	*	*	*	*	*	*	*	*	*	*	*	*	*	*	*	*	*	*	*	*
4F\	.	8d\L	.	16a-/LL	.	16bb-\LL	.	(4F\	-cen-	(4d\	-cen-	2a-\	-cen-	2b-\	-cen-	4B-/	.	4f\	.	2.b-\	.	2.ryy
.	.	.	.	16b-/	.	16aa-\	.	.	.	.	.	.	.	.	.	.	.	.	.	.	.	.
.	.	8d\J	.	16a-/	.	16gg\	.	.	.	.	.	.	.	.	.	.	.	.	.	.	.	.
.	.	.	.	16b-/	.	16aa-\JJ	.	.	.	.	.	.	.	.	.	.	.	.	.	.	.	.
4D\	.	8f\L	.	16a-/	.	16b-\LL	.	4D\)	.	4f\)	.	.	.	.	.	4B-/	.	4f\	.	.	.	.
.	.	.	.	16b-/	.	16dd\	.	.	.	.	.	.	.	.	.	.	.	.	.	.	.	.
.	.	8f\J	.	16a-/	.	16ff\	.	.	.	.	.	.	.	.	.	.	.	.	.	.	.	.
.	.	.	.	16b-/JJ	.	16aa-\JJ	.	.	.	.	.	.	.	.	.	.	.	.	.	.	.	.
*	*	*	*	*Xtremolo	*	*	*	*	*	*	*	*	*	*	*	*	*	*	*	*	*	*
4E-\	.	8e-\L	.	16g/LL	.	16aa-\LL	.	4E-\	-dit	4e-\	-dit	4g\	-dit	4b-\	-dit	4e-\	.	4g\	.	.	.	.
.	.	.	.	16b-/	.	16gg\	.	.	.	.	.	.	.	.	.	.	.	.	.	.	.	.
.	.	8e-\J	.	16g/	.	16ff\	.	.	.	.	.	.	.	.	.	.	.	.	.	.	.	.
.	.	.	.	16b-/JJ	.	16gg\JJ	.	.	.	.	.	.	.	.	.	.	.	.	.	.	.	.
=53	=53	=53	=53	=53	=53	=53	=53	=53	=53	=53	=53	=53	=53	=53	=53	=53	=53	=53	=53	=53	=53	=53
*	*	*	*	*tremolo	*	*	*	*	*	*	*	*	*	*	*	*	*	*	*	*	*	*
!LO:TX:t=P:problem=mixed beam	!	!	!	!	!	!	!	!	!	!	!	!	!	!	!	!	!	!	!	!	!	!
8A-\L	.	8A-/L	.	16a-/LL	.	16gg\LL	.	4A-\	de	4c\	de	4a-\	de	4ff\	de	4e-\	.	4a-\	.	4a-/	.	2.ryy
.	.	.	.	16a-/	.	16ff\	.	.	.	.	.	.	.	.	.	.	.	.	.	.	.	.
8A-\	.	8A-/J	.	16a-/	.	16aa-\	.	.	.	.	.	.	.	.	.	.	.	.	.	.	.	.
.	.	.	.	16a-/JJ	.	16ff\JJ	.	.	.	.	.	.	.	.	.	.	.	.	.	.	.	.
8B-\	.	8B-/L	.	16g/LL	.	4ee-\	.	2B-\	Cae-	2B-\	Cae-	(4g\	Cae-	(4ee-\	.	4e-\	.	4g\	.	4g/	.	.
.	.	.	.	16g/	.	.	.	.	.	.	.	.	.	.	.	.	.	.	.	.	.	.
8B-\	.	8B-/	.	16g/	.	.	.	.	.	.	.	.	.	.	.	.	.	.	.	.	.	.
.	.	.	.	16g/JJ	.	.	.	.	.	.	.	.	.	.	.	.	.	.	.	.	.	.
8BB-/	.	8B-/	.	16f/LL	.	4dd\	.	.	.	.	.	4f\)	.	4dd\)	cae-	4B-/	.	4f\	.	4f/	.	.
.	.	.	.	16f/	.	.	.	.	.	.	.	.	.	.	.	.	.	.	.	.	.	.
8BB-/J	.	8B-/J	.	16f/	.	.	.	.	.	.	.	.	.	.	.	.	.	.	.	.	.	.
.	.	.	.	16f/JJ	.	.	.	.	.	.	.	.	.	.	.	.	.	.	.	.	.	.
*	*	*Xtremolo	*	*	*	*	*	*	*	*	*	*	*	*	*	*	*	*	*	*	*	*
=54	=54	=54	=54	=54	=54	=54	=54	=54	=54	=54	=54	=54	=54	=54	=54	=54	=54	=54	=54	=54	=54	=54
!	!	!LO:N:vis=8	!	!LO:TX:t=P:problem=mixed beam	!	!	!	!	!	!	!	!	!	!	!	!	!	!	!	!	!	!
8E-\L	.	8.e-\L	.	8g/L	.	8ee-\	.	4E-\	-lis	4B-\	-lis	4g\	-lis	4ee-\	-lis	2.E-/	.	2.e-\	.	8g\L	.	2.ryy
8c\	.	.	.	8ee-\	.	4ee-\	.	.	.	.	.	.	.	.	.	.	.	.	.	8ee-\	.	.
!	!	!LO:N:vis=8	!	!	!	!	!	!	!	!	!	!	!	!	!	!	!	!	!	!	!	!
.	.	8.c\	.	.	.	.	.	.	.	.	.	.	.	.	.	.	.	.	.	.	.	.
8B-\	.	.	.	8dd\	.	.	.	4r	.	4r	.	4r	.	4r	.	.	.	.	.	8dd\	.	.
8A-\	.	8B-\	.	8cc\	.	4ee-\	.	.	.	.	.	.	.	.	.	.	.	.	.	8cc\J	.	.
8G\	.	8G\	.	8b-\	.	.	.	4r	.	4r	.	4r	.	4r	.	.	.	.	.	4b-\	.	.
8E-\J	.	8e-\J	.	8g\J	.	8ee-\	.	.	.	.	.	.	.	.	.	.	.	.	.	.	.	.
=55	=55	=55	=55	=55	=55	=55	=55	=55	=55	=55	=55	=55	=55	=55	=55	=55	=55	=55	=55	=55	=55	=55
*	*	*	*	*	*	*	*	*	*ij	*	*ij	*	*	*	*ij	*	*	*	*	*	*	*
8A-\L	.	8A-/L	.	8cc\L	.	16dd\LL	.	4A-\	de	4c\	de	4a-\	de	8cc\L	de	4e-\	.	4a-\	.	8cc\L	.	2.ryy
.	.	.	.	.	.	16cc\	.	.	.	.	.	.	.	.	.	.	.	.	.	.	.	.
8A-\J	.	8A-/J	.	8a-\J	.	16aa-\	.	.	.	.	.	.	.	8ff\J	.	.	.	.	.	8a-\J	.	.
.	.	.	.	.	.	16ff\JJ	.	.	.	.	.	.	.	.	.	.	.	.	.	.	.	.
*	*	*tremolo	*	*	*	*	*	*	*	*	*	*	*	*	*	*	*	*	*	*	*	*
!LO:TX:t=P:problem=mixed beam	!	!	!	!	!	!	!	!	!	!	!	!	!	!	!	!	!	!	!	!	!	!
8B-\L	.	8B-/L	.	4g/	.	4ee-\	.	2B-\	Cae-	2B-\	Cae-	(4g\	Cae-	(4ee-\	cae-	4e-\	.	4g\	.	4g/	.	.
8B-\	.	8B-/	.	.	.	.	.	.	.	.	.	.	.	.	.	.	.	.	.	.	.	.
8BB-/	.	8B-/	.	4f/	.	4dd\	.	.	.	.	.	4f\)	.	4dd\)	.	4B-/	.	4f\	.	4f/	.	.
8BB-/J	.	8B-/J	.	.	.	.	.	.	.	.	.	.	.	.	.	.	.	.	.	.	.	.
*	*	*Xtremolo	*	*	*	*	*	*	*	*	*	*	*	*	*	*	*	*	*	*	*	*
=56	=56	=56	=56	=56	=56	=56	=56	=56	=56	=56	=56	=56	=56	=56	=56	=56	=56	=56	=56	=56	=56	=56
4E-\	.	4e-\	.	4g/	.	4ee-\	.	2E-\	-lis	4B-\	-lis	4g\	-lis	4ee-\	-lis	4e-\	.	4g\	.	4g/	.	2.ryy
*	*	*	*	*	*	*	*	*	*Xij	*	*Xij	*	*	*	*Xij	*	*	*	*	*	*	*
4EE-/	.	4E-/	.	4e-/	.	4e-/	.	.	.	4r	.	4r	.	4r	.	4e-\	.	4g\	.	4g/	.	.
4r	.	4r	.	4r	.	4r	.	4r	.	4r	.	4r	.	4r	.	4r	.	4r	.	4r	.	.
==	==	==	==	==	==	==	==	==	==	==	==	==	==	==	==	==	==	==	==	==	==	==
*-	*-	*-	*-	*-	*-	*-	*-	*-	*-	*-	*-	*-	*-	*-	*-	*-	*-	*-	*-	*-	*-	*-
!!!system-decoration: [(s1,s2)][(s3,s4)][(s5,s6,s7,s8)][(s9,s10,s11)][(s12)]
!!!RDF**kern: > = above
!!!RDF**kern: < = below
!!!RDF**kern: | = vertical stroke
!!!RDF**kern: N = linked
!!!RDF**kern: i = editorial accidental
!!!RDF**kern: l = terminal long
!!!ENC: Andrzej Kubiczek
!!!END: 2020-09-25
!!!EED: Wojciech Jakubiak-Danek
!!!EEV: 2022-02-02
!!!YEC: Copyright 2022 Narodowy Instytut Fryderyka Chopina (https://polishscores.org)
!!!YEM: License CC-BY-4.0 (https://creativecommons.org/licenses/by/4.0)
